kolmibeni/unity-kafka/net5.0-modify/test-data/Total_Robot.csv
J1,J2,J3,J4,J5,J6,ACC,ACR,BCC,BCR,changeJigClaw,changeWpClaw,CT350JigIn,CT350JigOut,CT350WpChange,CT350WpIn,CT350WpOut,CV1Out,CV2In,EQ300WpIn,EQ300WpOut,jigAIn,jigAOut,jigBIn,jigBOut,jigCIn,jigCOut,schunkCC,schunkCR,toolChangeCC,toolChangeCR,id
-3.016943,-35.38474,-29.49916,-88.57566,-92.51571,29.53048,0,0,0,0,0,0,0,0,0,0,0,0,0,0,0,0,0,0,0,0,1,0,0,0,0,1
-3.016943,-35.38474,-29.49916,-88.57566,-92.51571,29.53048,0,0,0,0,0,0,0,0,0,0,0,0,0,0,0,0,0,0,0,0,1,0,0,0,0,2
-3.016943,-35.38474,-29.49916,-88.57566,-92.51571,29.53048,0,0,0,0,0,0,0,0,0,0,0,0,0,0,0,0,0,0,0,0,1,0,0,0,0,3
-2.95823,-35.366,-29.53029,-88.60329,-92.46387,29.56042,0,0,0,0,0,0,0,0,0,0,0,0,0,0,0,0,0,0,0,0,1,0,0,0,0,4
-2.311294,-35.15279,-29.87718,-88.91113,-91.89455,29.8959,0,0,0,0,0,0,0,0,0,0,0,0,0,0,0,0,0,0,0,0,1,0,0,0,0,5
-0.5809065,-34.52221,-30.83922,-89.76691,-90.39039,30.84237,0,0,0,0,0,0,0,0,0,0,0,0,0,0,0,0,0,0,0,0,1,0,0,0,0,6
3.046954,-32.90471,-33.02357,-91.73058,-87.33987,33.06958,0,0,0,0,0,0,0,0,0,0,0,0,0,0,0,0,0,0,0,0,1,0,0,0,0,7
8.408151,-29.73377,-36.68598,-95.12303,-83.16518,37.00323,0,0,0,0,0,0,0,0,0,0,0,0,0,0,0,0,0,0,0,0,1,0,0,0,0,8
14.07738,-25.28627,-41.13069,-99.45234,-79.34971,42.03075,0,0,0,0,0,0,0,0,0,0,0,0,0,0,0,0,0,0,0,0,1,0,0,0,0,9
20.63799,-18.63823,-46.94044,-105.484,-75.99224,48.8786,0,0,0,0,0,0,0,0,0,0,0,0,0,0,0,0,0,0,0,0,1,0,0,0,0,10
28.04973,-9.1375,-54.06459,-113.4468,-73.91221,57.45815,0,0,0,0,0,0,0,0,0,0,0,0,0,0,0,0,0,0,0,0,1,0,0,0,0,11
31.51485,-3.982926,-57.4257,-117.4411,-73.5942,61.49615,0,0,0,0,0,0,0,0,0,0,0,0,0,0,0,0,0,0,0,0,1,0,0,0,0,12
34.27907,0.446494,-60.03184,-120.6801,-73.60549,64.60113,0,0,0,0,0,0,0,0,0,0,0,0,0,0,0,0,0,0,0,0,1,0,0,0,0,13
36.00925,3.355039,-61.59433,-122.7106,-73.70845,66.45132,0,0,0,0,0,0,0,0,0,0,0,0,0,0,0,0,0,0,0,0,1,0,0,0,0,14
37.82488,6.200483,-62.88277,-124.7676,-73.72073,68.05947,0,0,0,0,0,0,0,0,0,0,0,0,0,0,0,0,0,0,0,0,1,0,0,0,0,15
38.70777,7.22711,-63.14451,-125.6851,-73.54443,68.52386,0,0,0,0,0,0,0,0,0,0,0,0,0,0,0,0,0,0,0,0,1,0,0,0,0,16
39.67447,8.075974,-63.16016,-126.6283,-73.20116,68.80615,0,0,0,0,0,0,0,0,0,0,0,0,0,0,0,0,0,0,0,0,1,0,0,0,0,17
40.81111,8.926684,-63.00542,-127.6993,-72.69762,69.00234,0,0,0,0,0,0,0,0,0,0,0,0,0,0,0,0,0,0,0,0,1,0,0,0,0,18
41.69392,9.594787,-62.85301,-128.5258,-72.28745,69.13663,0,0,0,0,0,0,0,0,0,0,0,0,0,0,0,0,0,0,0,0,1,0,0,0,0,19
42.33597,10.09534,-62.73209,-129.1258,-71.98293,69.23102,0,0,0,0,0,0,0,0,0,0,0,0,0,0,0,0,0,0,0,0,1,0,0,0,0,20
42.76226,10.43474,-62.64683,-129.5236,-71.77761,69.29205,0,0,0,0,0,0,0,0,0,0,0,0,0,0,0,0,0,0,0,0,1,0,0,0,0,21
42.92813,10.56837,-62.61256,-129.6782,-71.697,69.31543,0,0,0,0,0,0,0,0,0,0,0,0,0,0,0,0,0,0,0,0,1,0,0,0,0,22
42.9464,10.58313,-62.60873,-129.6952,-71.6881,69.31797,0,0,0,0,0,0,0,0,0,0,0,0,0,0,0,0,0,0,0,0,1,0,0,0,0,23
42.9464,10.58313,-62.60873,-129.6952,-71.6881,69.31797,0,0,0,0,0,0,0,0,0,0,0,0,0,0,0,0,0,0,0,0,1,1,0,0,0,24
42.9464,10.58313,-62.60873,-129.6952,-71.6881,69.31797,0,0,0,0,0,0,0,0,0,0,0,0,0,0,0,0,0,0,0,0,1,1,0,0,0,25
42.9464,10.58313,-62.60873,-129.6952,-71.6881,69.31797,0,0,0,0,0,0,0,0,0,0,0,0,0,0,0,0,0,0,0,0,1,1,0,0,0,26
42.9464,10.58313,-62.60873,-129.6952,-71.6881,69.31797,0,0,0,0,0,0,0,0,0,0,0,0,0,0,0,0,0,0,0,0,1,1,0,0,0,27
42.9464,10.58313,-62.60873,-129.6952,-71.6881,69.31797,0,0,0,0,0,0,0,0,0,0,0,0,0,0,0,0,0,0,0,0,1,1,0,0,0,28
42.9464,10.58313,-62.60873,-129.6952,-71.6881,69.31797,0,0,0,0,0,0,0,0,0,0,0,0,0,0,0,0,0,0,0,0,1,1,0,0,0,29
42.9464,10.58313,-62.60873,-129.6952,-71.6881,69.31797,0,0,0,0,0,0,0,0,0,0,0,0,0,0,0,0,0,0,0,0,1,1,0,0,0,30
42.9464,10.54056,-62.56453,-129.6839,-71.65987,69.28215,0,0,0,0,0,0,0,0,0,0,0,0,0,0,0,0,0,0,0,0,1,0,0,0,0,31
42.9464,10.20096,-62.21074,-129.593,-71.43417,68.99494,0,0,0,0,0,0,0,0,0,0,0,0,0,0,0,0,0,0,0,0,1,0,0,0,0,32
42.9464,9.523657,-61.49901,-129.4061,-70.98145,68.41483,0,0,0,0,0,0,0,0,0,0,0,0,0,0,0,0,0,0,0,0,1,0,0,0,0,33
42.9464,8.416848,-60.31771,-129.0841,-70.2341,67.44495,0,0,0,0,0,0,0,0,0,0,0,0,0,0,0,0,0,0,0,0,1,0,0,0,0,34
42.9464,7.680827,-59.51913,-128.8579,-69.73184,66.78417,0,0,0,0,0,0,0,0,0,0,0,0,0,0,0,0,0,0,0,0,1,0,0,0,0,35
42.66043,6.891861,-58.96503,-128.4174,-69.50011,66.22501,0,0,0,0,0,0,0,0,0,0,0,0,0,0,0,0,0,0,0,0,1,0,0,0,0,36
41.56115,5.925632,-59.06048,-127.3746,-70.00534,65.93478,0,0,0,0,0,0,0,0,0,0,0,0,0,0,0,0,0,0,0,0,1,0,0,0,0,37
39.53329,4.305427,-59.24895,-125.4684,-70.95383,65.44073,0,0,0,0,0,0,0,0,0,0,0,0,0,0,0,0,0,0,0,0,1,0,0,0,0,38
36.28252,1.945812,-59.4174,-122.4119,-72.42329,64.61289,0,0,0,0,0,0,0,0,0,0,0,0,0,0,0,0,0,0,0,0,1,0,0,0,0,39
32.61154,-0.4046457,-59.45887,-118.9744,-74.04938,63.65523,0,0,0,0,0,0,0,0,0,0,0,0,0,0,0,0,0,0,0,0,1,0,0,0,0,40
29.46763,-2.178689,-59.4064,-116.0531,-75.44304,62.84151,0,0,0,0,0,0,0,0,0,0,0,0,0,0,0,0,0,0,0,0,1,0,0,0,0,41
27.4978,-3.185846,-59.3442,-114.2367,-76.32519,62.34386,0,0,0,0,0,0,0,0,0,0,0,0,0,0,0,0,0,0,0,0,1,0,0,0,0,42
26.35207,-3.769365,-59.2471,-113.1901,-76.84731,62.0138,0,0,0,0,0,0,0,0,0,0,0,0,0,0,0,0,0,0,0,0,1,0,0,0,0,43
25.72849,-4.243659,-58.92967,-112.6425,-77.15427,61.60268,0,0,0,0,0,0,0,0,0,0,0,0,0,0,0,0,0,0,0,0,1,0,0,0,0,44
25.17931,-4.830948,-58.37954,-112.1818,-77.44678,61.00073,0,0,0,0,0,0,0,0,0,0,0,0,0,0,0,0,0,0,0,0,1,0,0,0,0,45
24.05484,-6.049439,-57.22779,-111.2404,-78.04772,59.74568,0,0,0,0,0,0,0,0,0,0,0,0,0,0,0,0,0,0,0,0,1,0,0,0,0,46
22.24336,-8.012373,-55.37236,-109.7238,-79.01583,57.72387,0,0,0,0,0,0,0,0,0,0,0,0,0,0,0,0,0,0,0,0,1,0,0,0,0,47
18.16026,-12.43581,-51.19108,-106.3063,-81.19759,53.16766,0,0,0,0,0,0,1,0,0,0,0,0,0,0,0,0,0,0,0,0,0,0,0,0,0,48
14.52105,-16.29905,-47.53149,-103.3282,-83.1144,49.1818,0,0,0,0,0,0,1,0,0,0,0,0,0,0,0,0,0,0,0,0,0,0,0,0,0,49
10.66061,-20.15995,-43.85015,-100.3721,-85.06469,45.17795,0,0,0,0,0,0,1,0,0,0,0,0,0,0,0,0,0,0,0,0,0,0,0,0,0,50
6.029684,-24.35559,-39.80293,-97.19915,-87.2516,40.78723,0,0,0,0,0,0,1,0,0,0,0,0,0,0,0,0,0,0,0,0,0,0,0,0,0,51
-1.376857,-29.85114,-34.35799,-93.16428,-90.32394,34.91385,0,0,0,0,0,0,1,0,0,0,0,0,0,0,0,0,0,0,0,0,0,0,0,0,0,52
-6.819399,-32.80109,-31.27794,-91.13097,-92.2005,31.62728,0,0,0,0,0,0,1,0,0,0,0,0,0,0,0,0,0,0,0,0,0,0,0,0,0,53
-15.37365,-35.8659,-27.76704,-89.28056,-94.59965,27.94824,0,0,0,0,0,0,1,0,0,0,0,0,0,0,0,0,0,0,0,0,0,0,0,0,0,54
-24.48496,-37.84966,-25.11128,-88.40592,-96.70662,25.24086,0,0,0,0,0,0,1,0,0,0,0,0,0,0,0,0,0,0,0,0,0,0,0,0,0,55
-33.95537,-39.21888,-22.93709,-88.08977,-98.65408,23.08195,0,0,0,0,0,0,1,0,0,0,0,0,0,0,0,0,0,0,0,0,0,0,0,0,0,56
-40.03061,-39.97569,-21.64521,-87.991,-99.86084,21.81198,0,0,0,0,0,0,1,0,0,0,0,0,0,0,0,0,0,0,0,0,0,0,0,0,0,57
-46.62204,-40.79326,-20.24657,-87.88689,-101.1689,20.43745,0,0,0,0,0,0,1,0,0,0,0,0,0,0,0,0,0,0,0,0,0,0,0,0,0,58
-53.21347,-41.61082,-18.84793,-87.78276,-102.4769,19.06293,0,0,0,0,0,0,1,0,0,0,0,0,0,0,0,0,0,0,0,0,0,0,0,0,0,59
-62.84708,-42.80572,-16.80377,-87.63059,-104.3886,17.05402,0,0,0,0,0,0,1,0,0,0,0,0,0,0,0,0,0,0,0,0,0,0,0,0,0,60
-69.43851,-43.62328,-15.40513,-87.52647,-105.6966,15.67951,0,0,0,0,0,0,1,0,0,0,0,0,0,0,0,0,0,0,0,0,0,0,0,0,0,61
-75.52245,-44.3779,-14.11417,-87.43037,-106.904,14.41082,0,0,0,0,0,0,1,0,0,0,0,0,0,0,0,0,0,0,0,0,0,0,0,0,0,62
-82.04369,-45.18676,-12.73043,-87.32737,-108.1981,13.05093,0,0,0,0,0,0,1,0,0,0,0,0,0,0,0,0,0,0,0,0,0,0,0,0,0,63
-88.28513,-45.96091,-11.40605,-87.22878,-109.4366,11.7494,0,0,0,0,0,0,1,0,0,0,0,0,0,0,0,0,0,0,0,0,0,0,0,0,0,64
-94.01942,-46.67216,-10.18929,-87.1382,-110.5746,10.55362,0,0,0,0,0,0,1,0,0,0,0,0,0,0,0,0,0,0,0,0,0,0,0,0,0,65
-99.01923,-47.2923,-9.128375,-87.05923,-111.5667,9.511002,0,0,0,0,0,0,1,0,0,0,0,0,0,0,0,0,0,0,0,0,0,0,0,0,0,66
-102.7859,-47.7595,-8.329119,-86.99973,-112.3142,8.725524,0,0,0,0,0,0,1,0,0,0,0,0,0,0,0,0,0,0,0,0,0,0,0,0,0,67
-105.7686,-48.1296,-7.696104,-86.9528,-112.9042,8.103447,0,0,0,0,0,0,1,0,0,0,0,0,0,0,0,0,0,0,0,0,0,0,0,0,0,68
-107.6934,-48.37486,-7.282134,-86.93144,-113.2008,7.697564,0,0,0,0,0,0,1,0,0,0,0,0,0,0,0,0,0,0,0,0,0,0,0,0,0,69
-109.0601,-48.60049,-6.94439,-86.98745,-112.7382,7.373771,0,0,0,0,0,0,1,0,0,0,0,0,0,0,0,0,0,0,0,0,0,0,0,0,0,70
-109.221,-48.69226,-6.849145,-87.08424,-111.8308,7.290571,0,0,0,0,0,0,1,0,0,0,0,0,0,0,0,0,0,0,0,0,0,0,0,0,0,71
-109.0836,-48.81329,-6.760812,-87.27737,-109.9978,7.223755,0,0,0,0,0,0,1,0,0,0,0,0,0,0,0,0,0,0,0,0,0,0,0,0,0,72
-108.7688,-48.98407,-6.649082,-87.57258,-107.1908,7.144341,0,0,0,0,0,0,1,0,0,0,0,0,0,0,0,0,0,0,0,0,0,0,0,0,0,73
-108.3323,-49.22038,-6.494562,-87.98122,-103.3052,7.034556,0,0,0,0,0,0,1,0,0,0,0,0,0,0,0,0,0,0,0,0,0,0,0,0,0,74
-107.8218,-49.49676,-6.313848,-88.45914,-98.76084,6.90615,0,0,0,0,0,0,1,0,0,0,0,0,0,0,0,0,0,0,0,0,0,0,0,0,0,75
-106.7754,-50.06324,-5.943439,-89.43871,-89.44641,6.642971,0,0,0,0,0,0,1,0,0,0,0,0,0,0,0,0,0,0,0,0,0,0,0,0,0,76
-106.0737,-50.44314,-5.695038,-90.09563,-83.19995,6.466478,0,0,0,0,0,0,1,0,0,0,0,0,0,0,0,0,0,0,0,0,0,0,0,0,0,77
-105.3004,-50.8618,-5.421287,-90.8196,-76.31608,6.271972,0,0,0,0,0,0,1,0,0,0,0,0,0,0,0,0,0,0,0,0,0,0,0,0,0,78
-104.6126,-51.23415,-5.177814,-91.46349,-70.19361,6.098983,0,0,0,0,0,0,1,0,0,0,0,0,0,0,0,0,0,0,0,0,0,0,0,0,0,79
-103.9375,-51.59966,-4.938816,-92.09554,-64.18366,5.929166,0,0,0,0,0,0,1,0,0,0,0,0,0,0,0,0,0,0,0,0,0,0,0,0,0,80
-103.3639,-51.89791,-4.743997,-92.63647,-59.10204,5.795321,0,0,0,0,0,0,1,0,0,0,0,0,0,0,0,0,0,0,0,0,0,0,0,0,0,81
-102.6893,-52.00301,-4.679226,-93.35177,-53.61026,5.846014,0,0,0,0,0,0,1,0,0,0,0,0,0,0,0,0,0,0,0,0,0,0,0,0,0,82
-102.1194,-51.37752,-5.098215,-94.18561,-50.35863,6.488466,0,0,0,0,0,0,1,0,0,0,0,0,0,0,0,0,0,0,0,0,0,0,0,0,0,83
-101.7215,-50.35063,-5.772611,-94.95592,-49.18493,7.41952,0,0,0,0,0,0,1,0,0,0,0,0,0,0,0,0,0,0,0,0,0,0,0,0,0,84
-101.3108,-48.86979,-6.725253,-95.87943,-48.68433,8.701961,0,0,0,0,0,0,1,0,0,0,0,0,0,0,0,0,0,0,0,0,0,0,0,0,0,85
-100.8064,-46.65673,-8.107303,-97.11835,-48.62079,10.53515,0,0,0,0,0,0,1,0,0,0,0,0,0,0,0,0,0,0,0,0,0,0,0,0,0,86
-100.244,-43.84338,-9.791523,-98.55758,-48.89695,12.73695,0,0,0,0,0,0,1,0,0,0,0,0,0,0,0,0,0,0,0,0,0,0,0,0,0,87
-99.68024,-40.7513,-11.54573,-99.99927,-49.33081,14.99061,0,0,0,0,0,0,1,0,0,0,0,0,0,0,0,0,0,0,0,0,0,0,0,0,0,88
-99.04001,-36.90682,-13.5798,-101.5851,-49.97536,17.54163,0,0,0,0,0,0,1,0,0,0,0,0,0,0,0,0,0,0,0,0,0,0,0,0,0,89
-98.38902,-32.596,-15.65797,-103.0832,-50.8027,20.06257,0,0,0,0,0,0,1,0,0,0,0,0,0,0,0,0,0,0,0,0,0,0,0,0,0,90
-97.74291,-27.87218,-17.67647,-104.3835,-51.79557,22.40784,0,0,0,0,0,0,1,0,0,0,0,0,0,0,0,0,0,0,0,0,0,0,0,0,0,91
-97.113,-22.79229,-19.52861,-105.3916,-52.92048,24.44321,0,0,0,0,0,0,1,0,0,0,0,0,0,0,0,0,0,0,0,0,0,0,0,0,0,92
-96.24792,-14.94965,-21.69991,-106.1954,-54.68873,26.60744,0,0,0,0,0,0,1,0,0,0,0,0,0,0,0,0,0,0,0,0,0,0,0,0,0,93
-95.74925,-9.912272,-22.6313,-106.2658,-55.80445,27.38444,0,0,0,0,0,0,1,0,0,0,0,0,0,0,0,0,0,0,0,0,0,0,0,0,0,94
-95.26026,-4.554935,-23.20918,-105.9959,-56.95106,27.69923,0,0,0,0,0,0,1,0,0,0,0,0,0,0,0,0,0,0,0,0,0,0,0,0,0,95
-94.82835,0.5649014,-23.3567,-105.4404,-57.99869,27.52194,0,0,0,0,0,0,1,0,0,0,0,0,0,0,0,0,0,0,0,0,0,0,0,0,0,96
-94.45443,5.332942,-23.13654,-104.6937,-58.9293,26.95148,0,0,0,0,0,0,1,0,0,0,0,0,0,0,0,0,0,0,0,0,0,0,0,0,0,97
-94.15782,9.370762,-22.68215,-103.9114,-59.68452,26.17452,0,0,0,0,0,0,1,0,0,0,0,0,0,0,0,0,0,0,0,0,0,0,0,0,0,98
-93.88465,13.32254,-22.0031,-103.0318,-60.39697,25.16397,0,0,0,0,0,0,1,0,0,0,0,0,0,0,0,0,0,0,0,0,0,0,0,0,0,99
-93.56204,18.33244,-20.81705,-101.7826,-61.2665,23.54465,0,0,0,0,0,0,1,0,0,0,0,0,0,0,0,0,0,0,0,0,0,0,0,0,0,100
-93.38636,21.2502,-19.97719,-101.0065,-61.75945,22.45141,0,0,0,0,0,0,1,0,0,0,0,0,0,0,0,0,0,0,0,0,0,0,0,0,0,101
-93.17833,24.93699,-18.88409,-100.0501,-62.38494,21.05462,0,0,0,0,0,0,1,0,0,0,0,0,0,0,0,0,0,0,0,0,0,0,0,0,0,102
-93.07996,26.80235,-18.44096,-99.6419,-62.71667,20.4793,0,0,0,0,0,0,1,0,0,0,0,0,0,0,0,0,0,0,0,0,0,0,0,0,0,103
-93.01792,28.04522,-18.30435,-99.45792,-62.95661,20.27555,0,0,0,0,0,0,1,0,0,0,0,0,0,0,0,0,0,0,0,0,0,0,0,0,0,104
-92.96745,29.13213,-18.4577,-99.43946,-63.19836,20.40206,0,0,0,0,0,0,1,0,0,0,0,0,0,0,0,0,0,0,0,0,0,0,0,0,0,105
-92.93679,29.88347,-18.93428,-99.61549,-63.40955,20.90084,0,0,0,0,0,0,1,0,0,0,0,0,0,0,0,0,0,0,0,0,0,0,0,0,0,106
-92.92085,30.39244,-19.67629,-99.94601,-63.60429,21.70238,0,0,0,0,0,0,1,0,0,0,0,0,0,0,0,0,0,0,0,0,0,0,0,0,0,107
-92.91493,30.72735,-20.52554,-100.3444,-63.77902,22.62792,0,0,0,0,0,0,1,0,0,0,0,0,0,0,0,0,0,0,0,0,0,0,0,0,0,108
-92.91338,31.16886,-22.02526,-101.0576,-64.06328,24.26429,0,0,0,0,0,0,1,0,0,0,0,0,0,0,0,0,0,0,0,0,0,0,0,0,0,109
-92.91307,31.48949,-23.06175,-101.5458,-64.26704,25.39128,0,0,0,0,0,0,1,0,0,0,0,0,0,0,0,0,0,0,0,0,0,0,0,0,0,110
-92.91277,31.82244,-24.05758,-102.0097,-64.47083,26.47035,0,0,0,0,0,0,1,0,0,0,0,0,0,0,0,0,0,0,0,0,0,0,0,0,0,111
-92.91251,32.12509,-24.90475,-102.4002,-64.65033,27.38541,0,0,0,0,0,0,1,0,0,0,0,0,0,0,0,0,0,0,0,0,0,0,0,0,0,112
-92.91226,32.42794,-25.70637,-102.7663,-64.82531,28.24875,0,0,0,0,0,0,1,0,0,0,0,0,0,0,0,0,0,0,0,0,0,0,0,0,0,113
-92.91207,32.68291,-26.35022,-103.0577,-64.96944,28.94036,0,0,0,0,0,0,1,0,0,0,0,0,0,0,0,0,0,0,0,0,0,0,0,0,0,114
-92.91192,32.87654,-26.82237,-103.27,-65.07712,29.44649,0,0,0,0,0,0,1,0,0,0,0,0,0,0,0,0,0,0,0,0,0,0,0,0,0,115
-92.91182,33.0045,-27.12703,-103.4063,-65.1475,29.7726,0,0,0,0,0,0,1,0,0,0,0,0,0,0,0,0,0,0,0,0,0,0,0,0,0,116
-92.91178,33.07151,-27.28444,-103.4766,-65.18414,29.94094,0,0,0,0,0,0,1,0,0,0,0,0,0,0,0,0,0,0,0,0,0,0,0,0,0,117
-92.91175,33.11014,-27.37444,-103.5166,-65.20517,30.03717,0,0,0,0,0,0,1,0,0,0,0,0,0,0,0,0,0,0,0,0,0,0,0,0,0,118
-92.91175,33.11195,-27.37865,-103.5185,-65.20616,30.04167,0,0,0,0,0,0,1,0,0,0,0,0,0,0,0,0,0,0,0,0,0,0,0,0,0,119
-92.91171,33.11263,-27.3799,-103.5191,-65.20641,30.04301,0,0,0,0,0,0,1,0,0,0,0,0,0,0,0,0,0,0,0,0,0,0,0,0,0,120
-92.91145,33.11626,-27.38654,-103.5222,-65.20775,30.05017,0,0,0,0,0,0,1,0,0,0,0,0,0,0,0,0,0,0,0,0,0,0,0,0,0,121
-92.91077,33.12618,-27.40469,-103.5308,-65.21138,30.06977,0,0,0,0,0,0,1,0,0,0,0,0,0,0,0,0,0,0,0,0,0,0,0,0,0,122
-92.9087,33.15632,-27.45967,-103.5566,-65.22243,30.12914,0,0,0,0,0,0,1,0,0,0,0,0,0,0,0,0,0,0,0,0,0,0,0,0,0,123
-92.90665,33.1864,-27.51438,-103.5824,-65.23346,30.18819,0,0,0,0,0,0,1,0,0,0,0,0,0,0,0,0,0,0,0,0,0,0,0,0,0,124
-92.90412,33.22336,-27.58142,-103.6139,-65.24701,30.26054,0,0,0,0,0,0,1,0,0,0,0,0,0,0,0,0,0,0,0,0,0,0,0,0,0,125
-92.90076,33.27283,-27.67082,-103.6559,-65.26512,30.35699,0,0,0,0,0,0,1,0,0,0,0,0,0,0,0,0,0,0,0,0,0,0,0,0,0,126
-92.8986,33.30484,-27.72842,-103.6829,-65.27683,30.41912,0,0,0,0,0,0,1,0,0,0,0,0,0,0,0,0,0,0,0,0,0,0,0,0,0,127
-92.89633,33.33826,-27.7884,-103.711,-65.28904,30.4838,0,0,0,0,0,0,1,0,0,0,0,0,0,0,0,0,0,0,0,0,0,0,0,0,0,128
-92.89317,33.38513,-27.87221,-103.7503,-65.30617,30.57415,0,0,0,0,0,0,1,0,0,0,0,0,0,0,0,0,0,0,0,0,0,0,0,0,0,129
-92.8903,33.42797,-27.94848,-103.786,-65.3218,30.65636,0,0,0,0,0,0,1,0,0,0,0,0,0,0,0,0,0,0,0,0,0,0,0,0,0,130
-92.88859,33.45353,-27.9939,-103.8073,-65.33112,30.70531,0,0,0,0,0,0,1,0,0,0,0,0,0,0,0,0,0,0,0,0,0,0,0,0,0,131
-92.88717,33.47477,-28.03154,-103.8249,-65.33888,30.74586,0,0,0,0,0,0,1,0,0,0,0,0,0,0,0,0,0,0,0,0,0,0,0,0,0,132
-92.88618,33.48954,-28.05764,-103.8371,-65.34425,30.77398,0,0,0,0,0,0,1,0,0,0,0,0,0,0,0,0,0,0,0,0,0,0,0,0,0,133
-92.88521,33.50408,-28.08333,-103.8491,-65.34954,30.80165,0,0,0,0,0,0,1,0,0,0,0,0,0,0,0,0,0,0,0,0,0,0,0,0,0,134
-92.88492,33.50845,-28.09105,-103.8527,-65.35114,30.80998,0,0,0,0,0,0,1,0,0,0,0,0,0,0,0,0,0,0,0,0,0,0,0,0,0,135
-92.88481,33.51016,-28.09405,-103.8541,-65.35175,30.8132,0,0,0,0,0,0,1,0,0,0,0,0,0,0,0,0,0,0,0,0,0,0,0,0,0,136
-92.88478,33.51056,-28.09477,-103.8545,-65.35191,30.81397,0,0,0,0,0,0,1,0,0,0,0,0,0,0,0,0,0,0,0,0,0,0,0,0,0,137
-92.88478,33.51057,-28.09478,-103.8545,-65.35191,30.814,0,0,0,0,0,0,1,0,0,0,0,0,0,0,0,0,0,0,0,0,0,0,1,0,0,138
-92.88478,33.51057,-28.09478,-103.8545,-65.35191,30.814,0,0,0,0,0,0,1,0,0,0,0,0,0,0,0,0,0,0,0,0,0,0,1,0,0,139
-92.88478,33.51057,-28.09478,-103.8545,-65.35191,30.814,0,0,0,0,0,0,1,0,0,0,0,0,0,0,0,0,0,0,0,0,0,0,1,0,0,140
-92.88478,33.51057,-28.09478,-103.8545,-65.35191,30.814,0,0,0,0,0,0,1,0,0,0,0,0,0,0,0,0,0,0,0,0,0,0,1,0,0,141
-92.88478,33.51057,-28.09478,-103.8545,-65.35191,30.814,0,0,0,0,0,0,1,0,0,0,0,0,0,0,0,0,0,0,0,0,0,0,1,0,0,142
-92.88478,33.51057,-28.09478,-103.8545,-65.35191,30.814,0,0,0,0,0,0,1,0,0,0,0,0,0,0,0,0,0,0,0,0,0,0,1,0,0,143
-92.88478,33.51057,-28.09478,-103.8545,-65.35191,30.814,0,0,0,0,0,0,1,0,0,0,0,0,0,0,0,0,0,0,0,0,0,0,1,0,0,144
-92.88478,33.51057,-28.09478,-103.8545,-65.35191,30.814,0,0,0,0,0,0,1,0,0,0,0,0,0,0,0,0,0,0,0,0,0,0,1,0,0,145
-92.88526,33.51011,-28.09501,-103.8543,-65.35238,30.81413,0,0,0,0,0,0,1,0,0,0,0,0,0,0,0,0,0,0,0,0,0,0,0,0,0,146
-92.97092,33.42736,-28.13498,-103.8234,-65.43531,30.83693,0,0,0,0,0,0,1,0,0,0,0,0,0,0,0,0,0,0,0,0,0,0,0,0,0,147
-93.30268,33.11093,-28.28705,-103.7021,-65.75545,30.92276,0,0,0,0,0,0,1,0,0,0,0,0,0,0,0,0,0,0,0,0,0,0,0,0,0,148
-94.29358,32.20253,-28.71688,-103.3236,-66.70262,31.15709,0,0,0,0,0,0,1,0,0,0,0,0,0,0,0,0,0,0,0,0,0,0,0,0,0,149
-95.01727,31.57239,-29.0091,-103.0336,-67.38638,31.30915,0,0,0,0,0,0,1,0,0,0,0,0,0,0,0,0,0,0,0,0,0,0,0,0,0,150
-95.73547,30.97337,-29.28228,-102.7356,-68.05878,31.44579,0,0,0,0,0,0,1,0,0,0,0,0,0,0,0,0,0,0,0,0,0,0,0,0,0,151
-95.88265,30.85375,-29.33628,-102.6733,-68.19588,31.47214,0,0,0,0,0,0,1,0,0,0,0,0,0,0,0,0,0,0,0,0,0,0,0,0,0,152
-95.90662,30.83437,-29.34503,-102.6632,-68.21819,31.47639,0,0,0,0,0,0,1,0,0,0,0,0,0,0,0,0,0,0,0,0,0,0,0,0,0,153
-95.90662,30.83437,-29.34503,-102.6632,-68.21819,31.47639,0,0,0,0,0,0,1,0,0,0,0,0,0,0,0,0,0,0,0,0,0,0,0,0,0,154
-95.90662,30.83437,-29.34503,-102.6632,-68.21819,31.47639,0,0,0,0,0,0,1,0,0,0,0,0,0,0,0,0,0,0,0,0,0,0,0,0,0,155
-95.90662,30.83437,-29.34503,-102.6632,-68.21819,31.47639,0,0,0,0,0,0,1,0,0,0,0,0,0,0,0,0,0,0,0,0,0,0,0,0,0,156
-95.90662,30.83437,-29.34503,-102.6632,-68.21819,31.47639,0,0,0,0,0,0,1,0,0,0,0,0,0,0,0,0,0,0,0,0,0,0,0,0,0,157
-95.90662,30.83437,-29.34503,-102.6632,-68.21819,31.47639,0,0,0,0,0,0,1,0,0,0,0,0,0,0,0,0,0,0,0,0,0,0,0,0,0,158
-95.90662,30.83429,-29.34498,-102.6631,-68.21803,31.47632,0,0,0,0,0,0,1,0,0,0,0,0,0,0,0,0,0,0,0,0,0,0,0,0,0,159
-95.90885,30.77182,-29.36034,-102.6797,-68.20548,31.49642,0,0,0,0,0,0,1,0,0,0,0,0,0,0,0,0,0,0,0,0,0,0,0,0,0,160
-95.93519,30.03651,-29.53693,-102.8753,-68.05713,31.729,0,0,0,0,0,0,1,0,0,0,0,0,0,0,0,0,0,0,0,0,0,0,0,0,0,161
-96.01404,27.8551,-30.01529,-103.448,-67.60945,32.37622,0,0,0,0,0,0,1,0,0,0,0,0,0,0,0,0,0,0,0,0,0,0,0,0,0,162
-96.10838,25.27654,-30.4921,-104.1076,-67.06455,33.05748,0,0,0,0,0,0,1,0,0,0,0,0,0,0,0,0,0,0,0,0,0,0,0,0,0,163
-96.2355,21.84149,-30.97607,-104.95,-66.31017,33.82077,0,0,0,0,0,0,1,0,0,0,0,0,0,0,0,0,0,0,0,0,0,0,0,0,0,164
-96.39117,17.67763,-31.32817,-105.9011,-65.34816,34.51941,0,0,0,0,0,0,1,0,0,0,0,0,0,0,0,0,0,0,0,0,0,0,0,0,0,165
-96.65392,10.70509,-31.33642,-107.2711,-63.60727,35.11584,0,0,0,0,0,0,1,0,0,0,0,0,0,0,0,0,0,0,0,0,0,0,0,0,0,166
-96.83269,5.978121,-30.92785,-108.0019,-62.32544,35.10038,0,0,0,0,0,0,1,0,0,0,0,0,0,0,0,0,0,0,0,0,0,0,0,0,0,167
-97.03333,0.67691,-30.07637,-108.5915,-60.78411,34.66938,0,0,0,0,0,0,1,0,0,0,0,0,0,0,0,0,0,0,0,0,0,0,0,0,0,168
-97.23953,-4.765561,-28.7792,-108.9044,-59.08623,33.76196,0,0,0,0,0,0,1,0,0,0,0,0,0,0,0,0,0,0,0,0,0,0,0,0,0,169
-97.45072,-10.31958,-27.02802,-108.8745,-57.2379,32.33741,0,0,0,0,0,0,1,0,0,0,0,0,0,0,0,0,0,0,0,0,0,0,0,0,0,170
-97.65019,-15.52305,-25.01123,-108.4843,-55.41165,30.53005,0,0,0,0,0,0,1,0,0,0,0,0,0,0,0,0,0,0,0,0,0,0,0,0,0,171
-97.86951,-21.15155,-22.43851,-107.6173,-53.35494,28.03551,0,0,0,0,0,0,1,0,0,0,0,0,0,0,0,0,0,0,0,0,0,0,0,0,0,172
-98.08921,-26.62944,-19.56232,-106.2738,-51.30363,25.03558,0,0,0,0,0,0,1,0,0,0,0,0,0,0,0,0,0,0,0,0,0,0,0,0,0,173
-98.40228,-34.01604,-15.13091,-103.5699,-48.53773,20.01687,0,0,0,0,0,0,1,0,0,0,0,0,0,0,0,0,0,0,0,0,0,0,0,0,0,174
-98.58739,-38.08192,-12.43068,-101.5894,-47.06112,16.73347,0,0,0,0,0,0,1,0,0,0,0,0,0,0,0,0,0,0,0,0,0,0,0,0,0,175
-98.76803,-41.79594,-9.805677,-99.44348,-45.77285,13.38378,0,0,0,0,0,0,1,0,0,0,0,0,0,0,0,0,0,0,0,0,0,0,0,0,0,176
-98.92171,-44.74563,-7.613651,-97.49556,-44.80968,10.47196,0,0,0,0,0,0,1,0,0,0,0,0,0,0,0,0,0,0,0,0,0,0,0,0,0,177
-99.08695,-47.69602,-5.325686,-95.32152,-43.9166,7.327377,0,0,0,0,0,0,1,0,0,0,0,0,0,0,0,0,0,0,0,0,0,0,0,0,0,178
-99.15938,-48.91774,-4.350052,-94.3535,-43.57147,5.955627,0,0,0,0,0,0,1,0,0,0,0,0,0,0,0,0,0,0,0,0,0,0,0,0,0,179
-99.20111,-49.60246,-3.795952,-93.7934,-43.38512,5.168772,0,0,0,0,0,0,1,0,0,0,0,0,0,0,0,0,0,0,0,0,0,0,0,0,0,180
-99.22486,-49.98631,-3.483028,-93.47388,-43.28295,4.72199,0,0,0,0,0,0,1,0,0,0,0,0,0,0,0,0,0,0,0,0,0,0,0,0,0,181
-99.23366,-50.12714,-3.367804,-93.35565,-43.24591,4.557047,0,0,0,0,0,0,1,0,0,0,0,0,0,0,0,0,0,0,0,0,0,0,0,0,0,182
-99.2345,-50.14067,-3.356726,-93.34428,-43.24236,4.541175,0,0,0,0,0,0,1,0,0,0,0,0,0,0,0,0,0,0,0,0,0,0,0,0,0,183
-99.16634,-50.13411,-3.355386,-93.28146,-43.27343,4.596537,0,0,0,0,0,1,0,0,0,0,0,0,0,0,0,0,0,0,0,0,0,0,0,0,0,184
-97.87994,-50.01038,-3.33016,-92.09594,-43.85991,5.641518,0,0,0,0,0,1,0,0,0,0,0,0,0,0,0,0,0,0,0,0,0,0,0,0,0,185
-93.55632,-49.59452,-3.245373,-88.11137,-45.8311,9.153765,0,0,0,0,0,1,0,0,0,0,0,0,0,0,0,0,0,0,0,0,0,0,0,0,0,186
-87.84538,-49.04522,-3.133381,-82.84831,-48.43478,13.79296,0,0,0,0,0,1,0,0,0,0,0,0,0,0,0,0,0,0,0,0,0,0,0,0,0,187
-81.72403,-48.45645,-3.013337,-77.20699,-51.22558,18.76556,0,0,0,0,0,1,0,0,0,0,0,0,0,0,0,0,0,0,0,0,0,0,0,0,0,188
-74.41368,-47.75331,-2.869982,-70.46992,-54.55845,24.70402,0,0,0,0,0,1,0,0,0,0,0,0,0,0,0,0,0,0,0,0,0,0,0,0,0,189
-67.47005,-47.08545,-2.733815,-64.07082,-57.72413,30.34458,0,0,0,0,0,1,0,0,0,0,0,0,0,0,0,0,0,0,0,0,0,0,0,0,0,190
-60.11302,-46.37783,-2.589542,-57.29074,-61.07829,36.32096,0,0,0,0,0,1,0,0,0,0,0,0,0,0,0,0,0,0,0,0,0,0,0,0,0,191
-53.05208,-45.69868,-2.451076,-50.78353,-64.29745,42.05682,0,0,0,0,0,1,0,0,0,0,0,0,0,0,0,0,0,0,0,0,0,0,0,0,0,192
-46.73751,-45.09132,-2.327246,-44.96415,-67.17633,47.18637,0,0,0,0,0,1,0,0,0,0,0,0,0,0,0,0,0,0,0,0,0,0,0,0,0,193
-40.04415,-44.44753,-2.195988,-38.79569,-70.22791,52.62363,0,0,0,0,0,1,0,0,0,0,0,0,0,0,0,0,0,0,0,0,0,0,0,0,0,194
-30.39544,-43.51948,-2.006774,-29.90364,-74.62687,60.46163,0,0,0,0,0,1,0,0,0,0,0,0,0,0,0,0,0,0,0,0,0,0,1,0,0,195
-23.97714,-42.90214,-1.880913,-23.98866,-77.55305,65.67545,0,0,0,0,0,1,0,0,0,0,0,0,0,0,0,0,0,0,0,0,0,0,1,0,0,196
-17.96416,-42.3238,-1.762997,-18.44723,-80.29443,70.56001,0,0,0,0,0,1,0,0,0,0,0,0,0,0,0,0,0,0,0,0,0,0,1,0,0,197
-10.39526,-41.59579,-1.614567,-11.4719,-83.74519,76.7085,0,0,0,0,0,1,0,0,0,0,0,0,0,0,0,0,0,0,0,0,0,0,1,0,0,198
-6.654175,-41.23596,-1.541204,-8.024185,-85.45078,79.74753,0,0,0,0,0,1,0,0,0,0,0,0,0,0,0,0,0,0,0,0,0,0,1,0,0,199
-2.59473,-40.84551,-1.461599,-4.283086,-87.30154,83.04517,0,0,0,0,0,1,0,0,0,0,0,0,0,0,0,0,0,0,0,0,0,0,1,0,0,200
-1.27001,-40.71809,-1.435619,-3.06225,-87.90549,84.12128,0,0,0,0,0,1,0,0,0,0,0,0,0,0,0,0,0,0,0,0,0,0,1,0,0,201
-0.5135961,-40.64534,-1.420785,-2.365157,-88.25035,84.73574,0,0,0,0,0,1,0,0,0,0,0,0,0,0,0,0,0,0,0,0,0,0,1,0,0,202
-0.2329274,-40.61834,-1.415282,-2.106493,-88.3783,84.96375,0,0,0,0,0,1,0,0,0,0,0,0,0,0,0,0,0,0,0,0,0,0,1,0,0,203
-0.2014415,-40.59501,-1.419128,-2.068034,-88.3925,84.98074,0,0,0,0,0,1,0,0,0,0,0,0,0,0,0,0,0,0,0,0,0,0,0,0,0,204
-0.2991446,-40.39713,-1.466564,-2.061729,-88.34621,84.81398,0,0,0,0,0,1,0,0,0,0,0,0,0,0,0,0,0,0,0,0,0,0,0,0,0,205
-0.7294711,-39.52592,-1.675442,-2.034064,-88.14239,84.07955,0,0,0,0,0,1,0,0,0,0,0,0,0,0,0,0,0,0,0,0,0,0,0,0,0,206
-1.373423,-38.22222,-1.988015,-1.992668,-87.83736,82.98055,0,0,0,0,0,1,0,0,0,0,0,0,0,0,0,0,0,0,0,0,0,0,0,0,0,207
-2.395173,-36.15366,-2.483967,-1.92698,-87.35341,81.23676,0,0,0,0,0,1,0,0,0,0,0,0,0,0,0,0,0,0,0,0,0,0,0,0,0,208
-4.649006,-31.5907,-3.577968,-1.782087,-86.28585,77.39022,0,0,0,0,0,1,0,0,0,0,0,0,0,0,0,0,0,0,0,0,0,0,0,0,0,209
-7.607817,-25.60049,-5.014162,-1.591877,-84.88438,72.34052,0,0,0,0,0,1,0,0,0,0,0,0,0,0,0,0,0,0,0,0,0,0,0,0,0,210
-9.716695,-21.331,-6.037799,-1.456308,-83.88548,68.74138,0,0,0,0,0,1,0,0,0,0,0,0,0,0,0,0,0,0,0,0,0,0,0,0,0,211
-13.42872,-13.81588,-7.839601,-1.217673,-82.12723,62.4062,0,0,0,0,0,1,0,0,0,0,0,0,0,0,0,0,0,0,0,0,0,0,0,0,0,212
-16.99297,-6.599951,-9.569667,-0.9885464,-80.43898,56.32323,0,0,0,0,0,1,0,0,0,0,0,0,0,0,0,0,0,0,0,0,0,0,0,0,0,213
-19.24308,-2.044526,-10.66186,-0.8438924,-79.37319,52.48304,0,0,0,0,0,1,0,0,0,0,0,0,0,0,0,0,0,0,0,0,0,0,0,0,0,214
-21.64213,2.812437,-11.82635,-0.6896681,-78.23685,48.38866,0,0,0,0,0,1,0,0,0,0,0,0,0,0,0,0,0,0,0,0,0,0,0,0,0,215
-24.08582,7.759758,-13.01251,-0.5325748,-77.07936,44.2181,0,0,0,0,0,1,0,0,0,0,0,0,0,0,0,0,0,0,0,0,0,0,0,0,0,216
-25.98441,11.60352,-13.93407,-0.4105179,-76.18007,40.97785,0,0,0,0,0,1,0,0,0,0,0,0,0,0,0,0,0,0,0,0,0,0,0,0,0,217
-28.44512,16.58531,-15.12849,-0.2523316,-75.01453,36.77823,0,0,0,0,0,1,0,0,0,0,0,0,0,0,0,0,0,0,0,0,0,0,0,0,0,218
-29.5531,18.82848,-15.66648,-0.1811044,-74.48955,34.88729,0,0,0,0,0,1,0,0,0,0,0,0,0,0,0,0,0,0,0,0,0,0,0,0,0,219
-30.35703,20.46094,-16.0883,-0.1294345,-74.07715,33.5153,0,0,0,0,0,1,0,0,0,0,0,0,0,0,0,0,0,0,0,0,0,0,0,0,0,220
-30.83091,21.44551,-16.47876,-0.09903634,-73.69225,32.70676,0,0,0,0,0,1,0,0,0,0,0,0,0,0,0,0,0,0,0,0,0,0,0,0,0,221
-31.062,21.97769,-16.98558,-0.08434279,-73.18813,32.31295,0,0,0,0,0,1,0,0,0,0,0,0,0,0,0,0,0,0,0,0,0,0,0,0,0,222
-31.14401,22.36207,-18.2322,-0.07959522,-71.94249,32.17474,0,0,0,0,0,1,0,0,0,0,0,0,0,0,0,0,0,0,0,0,0,0,0,0,0,223
-31.1445,22.60075,-19.37943,-0.08010072,-70.79527,32.17559,0,0,0,0,0,1,0,0,0,0,0,0,0,0,0,0,0,0,0,0,0,0,0,0,0,224
-31.1445,22.92566,-20.75883,-0.08080431,-69.41586,32.17765,0,0,0,0,0,1,0,0,0,0,0,0,0,0,0,0,0,0,0,0,0,0,0,0,0,225
-31.1445,23.30231,-22.17002,-0.08158305,-68.00468,32.1798,0,0,0,0,0,1,0,0,0,0,0,0,0,0,0,0,0,0,0,0,0,0,0,0,0,226
-31.1445,23.58434,-23.13052,-0.08215003,-67.04417,32.18128,0,0,0,0,0,1,0,0,0,0,0,0,0,0,0,0,0,0,0,0,0,0,0,0,0,227
-31.1445,23.7798,-23.75781,-0.08253939,-66.4169,32.18226,0,0,0,0,0,1,0,0,0,0,0,0,0,0,0,0,0,0,0,0,0,0,0,0,0,228
-31.1445,23.89941,-24.12825,-0.08277165,-66.04645,32.18285,0,0,0,0,0,1,0,0,0,0,0,0,0,0,0,0,0,0,0,0,0,0,0,0,0,229
-31.1445,23.94744,-24.27436,-0.08286729,-65.90034,32.18307,0,0,0,0,0,1,0,0,0,0,0,0,0,0,0,0,0,0,0,0,0,0,0,0,0,230
-31.1445,23.96268,-24.32038,-0.08289461,-65.85432,32.18314,0,0,0,0,0,1,0,0,0,0,0,0,0,0,0,0,0,0,0,0,0,0,0,0,0,231
-31.1445,23.97444,-24.35581,-0.08292193,-65.81889,32.1832,0,0,0,0,0,1,0,0,0,0,0,0,0,0,0,0,0,0,0,0,0,0,0,0,0,232
-31.1445,23.99305,-24.41173,-0.08295609,-65.76298,32.18329,0,0,0,0,0,1,0,0,0,0,0,0,0,0,0,0,0,0,0,0,0,0,0,0,0,233
-31.1445,24.01027,-24.46325,-0.08299024,-65.71145,32.18337,0,0,0,0,0,1,0,0,0,0,0,0,0,0,0,0,0,0,0,0,0,0,0,0,0,234
-31.1445,24.0409,-24.55449,-0.08305172,-65.6202,32.18352,0,0,0,0,0,1,0,0,0,0,0,0,0,0,0,0,0,0,0,0,0,0,0,0,0,235
-31.1445,24.07061,-24.64246,-0.08310637,-65.53224,32.18365,0,0,0,0,0,1,0,0,0,0,0,0,0,0,0,0,0,0,0,0,0,0,0,0,0,236
-31.1445,24.09232,-24.7064,-0.08314735,-65.4683,32.18377,0,0,0,0,0,1,0,0,0,0,0,0,0,0,0,0,0,0,0,0,0,0,0,0,0,237
-31.1445,24.12421,-24.79982,-0.08321567,-65.37489,32.18392,0,0,0,0,0,1,0,0,0,0,0,0,0,0,0,0,0,0,0,0,0,0,0,0,0,238
-31.1445,24.14613,-24.86372,-0.08325665,-65.31098,32.18401,0,0,0,0,0,1,0,0,0,0,0,0,0,0,0,0,0,0,0,0,0,0,0,0,0,239
-31.1445,24.16813,-24.9276,-0.08329764,-65.2471,32.18411,0,0,0,0,0,1,0,0,0,0,0,0,0,0,0,0,0,0,0,0,0,0,0,0,0,240
-31.1445,24.19193,-24.99637,-0.08334546,-65.17833,32.18423,0,0,0,0,0,1,0,0,0,0,0,0,0,0,0,0,0,0,0,0,0,0,0,0,0,241
-31.1445,24.21241,-25.0553,-0.08338644,-65.11941,32.18432,0,0,0,0,0,1,0,0,0,0,0,0,0,0,0,0,0,0,0,0,0,0,0,0,0,242
-31.1445,24.24327,-25.14367,-0.08344109,-65.03104,32.18446,0,0,0,0,0,1,0,0,0,0,0,0,0,0,0,0,0,0,0,0,0,0,0,0,0,243
-31.1445,24.26565,-25.20747,-0.08348891,-64.96724,32.18457,0,0,0,0,0,1,0,0,0,0,0,0,0,0,0,0,0,0,0,0,0,0,0,0,0,244
-31.1445,24.2864,-25.26634,-0.08352989,-64.90836,32.18465,0,0,0,0,0,1,0,0,0,0,0,0,0,0,0,0,0,0,0,0,0,0,0,0,0,245
-31.1445,24.32113,-25.36444,-0.08359137,-64.81026,32.18481,0,0,0,0,0,1,0,0,0,0,0,0,0,0,0,0,0,0,0,0,0,0,0,0,0,246
-31.1445,24.34207,-25.42326,-0.08363236,-64.75143,32.18491,0,0,0,0,0,1,0,0,0,0,0,0,0,0,0,0,0,0,0,0,0,0,0,0,0,247
-31.1445,24.36484,-25.48698,-0.08368018,-64.68772,32.18502,0,0,0,0,0,1,0,0,0,0,0,0,0,0,0,0,0,0,0,0,0,0,0,0,0,248
-31.1445,24.39827,-25.58008,-0.08374166,-64.59462,32.18517,0,0,0,0,0,1,0,0,0,0,0,0,0,0,0,0,0,0,0,0,0,0,0,0,0,249
-31.1445,24.42124,-25.64375,-0.08378948,-64.53095,32.18527,0,0,0,0,0,1,0,0,0,0,0,0,0,0,0,0,0,0,0,0,0,0,0,0,0,250
-31.1445,24.44253,-25.70252,-0.08383046,-64.47218,32.18536,0,0,0,0,0,1,0,0,0,0,0,0,0,0,0,0,0,0,0,0,0,0,0,0,0,251
-31.1445,24.46568,-25.76615,-0.08387145,-64.40855,32.18547,0,0,0,0,0,1,0,0,0,0,0,0,0,0,0,0,0,0,0,0,0,0,0,0,0,252
-31.1445,24.4889,-25.82978,-0.08391926,-64.34492,32.18557,0,0,0,0,0,1,0,0,0,0,0,0,0,0,0,0,0,0,0,0,0,0,0,0,0,253
-31.1445,24.52301,-25.92273,-0.08398075,-64.25197,32.18571,0,0,0,0,0,1,0,0,0,0,0,0,0,0,0,0,0,0,0,0,0,0,0,0,0,254
-31.1445,24.54645,-25.98631,-0.08402856,-64.1884,32.18582,0,0,0,0,0,1,0,0,0,0,0,0,0,0,0,0,0,0,0,0,0,0,0,0,0,255
-31.1445,24.56816,-26.04497,-0.08406954,-64.12973,32.18592,0,0,0,0,0,1,0,0,0,0,0,0,0,0,0,0,0,0,0,0,0,0,0,0,0,256
-31.1445,24.59177,-26.10852,-0.08411736,-64.06618,32.18602,0,0,0,0,0,1,0,0,0,0,0,0,0,0,0,0,0,0,0,0,0,0,0,0,0,257
-31.1445,24.61729,-26.17693,-0.08416518,-63.99777,32.18614,0,0,0,0,0,1,0,0,0,0,0,0,0,0,0,0,0,0,0,0,0,0,0,0,0,258
-31.1445,24.65024,-26.26484,-0.08422666,-63.90985,32.18628,0,0,0,0,0,1,0,0,0,0,0,0,0,0,0,0,0,0,0,0,0,0,0,0,0,259
-31.1445,24.67414,-26.32832,-0.08427448,-63.84637,32.18639,0,0,0,0,0,1,0,0,0,0,0,0,0,0,0,0,0,0,0,0,0,0,0,0,0,260
-31.1445,24.69628,-26.38691,-0.08431546,-63.7878,32.18648,0,0,0,0,0,1,0,0,0,0,0,0,0,0,0,0,0,0,0,0,0,0,0,0,0,261
-31.1445,24.73334,-26.48451,-0.08438377,-63.69019,32.18664,0,0,0,0,0,1,0,0,0,0,0,0,0,0,0,0,0,0,0,0,0,0,0,0,0,262
-31.1445,24.75567,-26.54304,-0.08443159,-63.63166,32.18673,0,0,0,0,0,1,0,0,0,0,0,0,0,0,0,0,0,0,0,0,0,0,0,0,0,263
-31.1445,24.79058,-26.63414,-0.08449307,-63.54056,32.18689,0,0,0,0,0,1,0,0,0,0,0,0,0,0,0,0,0,0,0,0,0,0,0,0,0,264
-31.1445,24.82252,-26.71706,-0.08455455,-63.45764,32.18702,0,0,0,0,0,1,0,0,0,0,0,0,0,0,0,0,0,0,0,0,0,0,0,0,0,265
-31.1445,24.84112,-26.76515,-0.08458871,-63.40955,32.1871,0,0,0,0,0,1,0,0,0,0,0,0,0,0,0,0,0,0,0,0,0,0,0,0,0,266
-31.1445,24.86129,-26.81715,-0.08462969,-63.35755,32.18718,0,0,0,0,0,1,0,0,0,0,0,0,0,0,0,0,0,0,0,0,0,0,0,0,0,267
-31.1445,24.86972,-26.83884,-0.08464336,-63.33587,32.18722,0,0,0,0,0,1,0,0,0,0,0,0,0,0,0,0,0,0,0,0,0,0,0,0,0,268
-31.1445,24.87436,-26.85078,-0.08465701,-63.32393,32.18725,0,0,0,0,0,1,0,0,0,0,0,0,0,0,0,0,0,0,0,0,0,0,0,0,0,269
-31.1445,24.87688,-26.85724,-0.08465701,-63.31747,32.18726,0,0,0,0,0,1,0,0,0,0,0,0,0,0,0,0,0,0,0,0,0,0,0,0,0,270
-31.1445,24.8777,-26.85935,-0.08466385,-63.31535,32.18726,0,0,0,0,0,1,0,0,0,0,0,0,0,0,0,0,0,0,0,0,0,0,0,0,0,271
-31.1445,24.87778,-26.85955,-0.08466385,-63.31516,32.18726,0,0,0,0,0,1,0,0,0,0,0,0,0,0,0,0,0,0,0,0,0,0,0,0,1,272
-31.1445,24.87778,-26.85955,-0.08466385,-63.31516,32.18726,0,0,0,0,0,1,0,0,0,0,0,0,0,0,0,0,0,0,0,0,0,0,0,0,1,273
-31.1445,24.87778,-26.85955,-0.08466385,-63.31516,32.18726,0,0,0,0,0,1,0,0,0,0,0,0,0,0,0,0,0,0,0,0,0,0,0,0,1,274
-31.1445,24.87778,-26.85955,-0.08466385,-63.31516,32.18726,0,0,0,0,0,1,0,0,0,0,0,0,0,0,0,0,0,0,0,0,0,0,0,0,1,275
-31.1445,24.87778,-26.85955,-0.08466385,-63.31516,32.18726,0,0,0,0,0,1,0,0,0,0,0,0,0,0,0,0,0,0,0,0,0,0,0,0,1,276
-31.1445,24.87778,-26.85955,-0.08466385,-63.31516,32.18726,0,0,0,0,0,1,0,0,0,0,0,0,0,0,0,0,0,0,0,0,0,0,0,0,1,277
-31.1445,24.87778,-26.85955,-0.08466385,-63.31516,32.18726,0,0,0,0,0,1,0,0,0,0,0,0,0,0,0,0,0,0,0,0,0,0,0,0,1,278
-31.1445,24.87778,-26.85955,-0.08466385,-63.31516,32.18726,0,0,0,0,0,1,0,0,0,0,0,0,0,0,0,0,0,0,0,0,0,0,0,0,1,279
-31.1445,24.87778,-26.85955,-0.08466385,-63.31516,32.18726,0,0,0,0,0,1,0,0,0,0,0,0,0,0,0,0,0,0,0,0,0,0,0,0,1,280
-31.1445,24.87778,-26.85955,-0.08466385,-63.31516,32.18726,0,0,0,0,0,1,0,0,0,0,0,0,0,0,0,0,0,0,0,0,0,0,0,0,1,281
-31.1445,24.87778,-26.85955,-0.08466385,-63.31516,32.18726,0,0,0,0,0,1,0,0,0,0,0,0,0,0,0,0,0,0,0,0,0,0,0,0,1,282
-31.1445,24.87778,-26.85955,-0.08466385,-63.31516,32.18726,0,0,0,0,0,1,0,0,0,0,0,0,0,0,0,0,0,0,0,0,0,0,0,0,1,283
-31.1445,24.87778,-26.85955,-0.08466385,-63.31516,32.18726,0,0,0,0,0,1,0,0,0,0,0,0,0,0,0,0,0,0,0,0,0,0,0,0,1,284
-31.1445,24.87733,-26.85841,-0.08466385,-63.3163,32.18726,0,0,0,0,0,1,0,0,0,0,0,0,0,0,0,0,0,0,0,0,0,0,0,0,0,285
-31.1445,24.81136,-26.68813,-0.08453406,-63.48657,32.18698,0,0,0,0,0,1,0,0,0,0,0,0,0,0,0,0,0,0,0,0,0,0,0,0,0,286
-31.1445,24.49724,-25.85255,-0.08393293,-64.32215,32.18561,0,0,0,0,0,1,0,0,0,0,0,0,0,0,0,0,0,0,0,0,0,0,0,0,0,287
-31.1445,23.90459,-24.14405,-0.08278532,-66.03065,32.18287,0,0,0,0,0,1,0,0,0,0,0,0,0,0,0,0,0,0,0,0,0,0,0,0,0,288
-31.1445,23.12981,-21.54445,-0.08122784,-68.63025,32.17884,0,0,0,0,0,1,0,0,0,0,0,0,0,0,0,0,0,0,0,0,0,0,0,0,0,289
-31.1445,22.53008,-19.05287,-0.0799436,-71.12183,32.17511,0,0,0,0,0,1,0,0,0,0,0,0,0,0,0,0,0,0,0,0,0,0,0,0,0,290
-31.1445,22.21009,-17.4064,-0.07919902,-72.76829,32.17271,0,0,0,0,0,1,0,0,0,0,0,0,0,0,0,0,0,0,0,0,0,0,0,0,1,291
-31.1445,22.0801,-16.62927,-0.07887796,-73.54543,32.17158,0,0,0,0,0,1,0,0,0,0,0,0,0,0,0,0,0,0,0,0,0,0,0,0,1,292
-31.1445,22.05033,-16.4391,-0.07879598,-73.7356,32.17131,0,0,0,0,0,1,0,0,0,0,0,0,0,0,0,0,0,0,0,0,0,0,0,0,1,293
-31.1445,22.05028,-16.43876,-0.07879598,-73.73595,32.17131,0,0,0,0,0,1,0,0,0,0,0,0,0,0,0,0,0,0,0,0,0,0,0,0,1,294
-31.1445,22.05028,-16.43876,-0.07879598,-73.73595,32.17131,0,0,0,0,0,1,0,0,0,0,0,0,0,0,0,0,0,0,0,0,0,0,0,0,1,295
-31.1445,22.05028,-16.43876,-0.07879598,-73.73595,32.17131,0,0,0,0,0,1,0,0,0,0,0,0,0,0,0,0,0,0,0,0,0,0,0,0,1,296
-31.1445,22.05028,-16.43876,-0.07879598,-73.73595,32.17131,0,0,0,0,0,1,0,0,0,0,0,0,0,0,0,0,0,0,0,0,0,0,0,0,1,297
-31.1445,22.05028,-16.43876,-0.07879598,-73.73595,32.17131,0,0,0,0,0,1,0,0,0,0,0,0,0,0,0,0,0,0,0,0,0,0,0,0,1,298
-31.1445,22.05028,-16.43876,-0.07879598,-73.73595,32.17131,0,0,0,0,0,1,0,0,0,0,0,0,0,0,0,0,0,0,0,0,0,0,0,0,1,299
-31.1445,22.05028,-16.43876,-0.07879598,-73.73595,32.17131,0,0,0,0,0,1,0,0,0,0,0,0,0,0,0,0,0,0,0,0,0,0,0,0,1,300
-31.1445,22.05028,-16.43876,-0.07879598,-73.73595,32.17131,0,0,0,0,0,1,0,0,0,0,0,0,0,0,0,0,0,0,0,0,0,0,0,0,1,301
-31.1445,22.05028,-16.43876,-0.07879598,-73.73595,32.17131,0,0,0,0,0,1,0,0,0,0,0,0,0,0,0,0,0,0,0,0,0,0,0,0,1,302
-31.1445,22.05028,-16.43876,-0.07879598,-73.73595,32.17131,0,0,0,0,0,1,0,0,0,0,0,0,0,0,0,0,0,0,0,0,0,0,0,0,1,303
-31.1438,22.04953,-16.43896,-0.07881648,-73.73571,32.1557,0,0,0,0,0,1,0,0,0,0,0,0,0,0,0,0,0,0,0,0,0,0,0,0,0,304
-31.09518,21.99667,-16.45345,-0.08010755,-73.71919,31.06006,0,0,0,0,0,1,0,0,0,0,0,0,0,0,0,0,0,0,0,0,0,0,0,0,0,305
-30.88459,21.76775,-16.51622,-0.0856885,-73.64766,26.3149,0,0,0,0,0,1,0,0,0,0,0,0,0,0,0,0,0,0,0,0,0,0,0,0,0,306
-30.6006,21.45904,-16.60088,-0.0932163,-73.5512,19.91567,0,0,0,0,0,1,0,0,0,0,0,0,0,0,0,0,0,0,0,0,0,0,0,0,0,307
-30.21633,21.04131,-16.71542,-0.1034082,-73.42067,11.25679,0,0,0,0,0,1,0,0,0,0,0,0,0,0,0,0,0,0,0,0,0,0,0,0,0,308
-29.80825,20.5977,-16.83706,-0.1142286,-73.28206,2.061604,0,0,0,0,0,1,0,0,0,0,0,0,0,0,0,0,0,0,0,0,0,0,0,0,0,309
-29.0885,19.81529,-17.0516,-0.1333145,-73.03757,-14.1567,0,0,0,0,0,1,0,0,0,0,0,0,0,0,0,0,0,0,0,0,0,0,0,0,0,310
-28.42747,19.0967,-17.24864,-0.1508429,-72.81306,-29.05184,0,0,0,0,0,1,0,0,0,0,0,0,0,0,0,0,0,0,0,0,0,0,0,0,0,311
-27.80051,18.41516,-17.43552,-0.1674628,-72.60009,-43.17912,0,0,0,0,0,1,0,0,0,0,0,0,0,0,0,0,0,0,0,0,0,0,0,0,0,312
-27.38348,17.96182,-17.55982,-0.1785223,-72.45844,-52.57609,0,0,0,0,0,1,0,0,0,0,0,0,0,0,0,0,0,0,0,0,0,0,0,0,0,313
-26.97056,17.51295,-17.6829,-0.1894724,-72.31818,-61.88055,0,0,0,0,0,1,0,0,0,0,0,0,0,0,0,0,0,0,0,0,0,0,0,0,0,314
-26.58985,17.09909,-17.79639,-0.1995618,-72.18887,-70.45917,0,0,0,0,0,1,0,0,0,0,0,0,0,0,0,0,0,0,0,0,0,0,0,0,0,315
-26.20914,16.68524,-17.90987,-0.2096581,-72.05955,-79.0378,0,0,0,0,0,1,0,0,0,0,0,0,0,0,0,0,0,0,0,0,0,0,0,0,0,316
-25.76497,16.2024,-18.04226,-0.2214348,-71.90868,-89.04619,0,0,0,0,0,1,0,0,0,0,0,0,0,0,0,0,0,0,0,0,0,0,0,0,0,317
-25.1939,15.58162,-18.21248,-0.2365792,-71.71471,-101.9141,0,0,0,0,0,1,0,0,0,0,0,0,0,0,0,0,0,0,0,0,0,0,0,0,0,318
-24.561,14.89362,-18.40114,-0.2533563,-71.49973,-116.1753,0,0,0,0,0,1,0,0,0,0,0,0,0,0,0,0,0,0,0,0,0,0,0,0,0,319
-24.19285,14.49341,-18.51087,-0.2631178,-71.37468,-124.471,0,0,0,0,0,1,0,0,0,0,0,0,0,0,0,0,0,0,0,0,0,0,0,0,0,320
-23.81981,14.0879,-18.62207,-0.2730092,-71.24797,-132.8766,0,0,0,0,0,1,0,0,0,0,0,0,0,0,0,0,0,0,0,0,0,0,0,0,0,321
-23.35282,13.58024,-18.76127,-0.2853938,-71.08935,-143.3996,0,0,0,0,0,1,0,0,0,0,0,0,0,0,0,0,0,0,0,0,0,0,0,0,0,322
-23.10774,13.31383,-18.83432,-0.2918901,-71.0061,-148.9218,0,0,0,0,0,1,0,0,0,0,0,0,0,0,0,0,0,0,0,0,0,0,0,0,0,323
-22.87858,13.0749,-18.95357,-0.2980654,-70.87733,-154.0853,0,0,0,0,0,1,0,0,0,0,0,0,0,0,0,0,0,0,0,0,0,0,0,0,0,324
-22.77106,13.07226,-19.53944,-0.3019454,-70.28699,-156.505,0,0,0,0,0,1,0,0,0,0,0,0,0,0,0,0,0,0,0,0,0,0,0,0,0,325
-22.74501,13.22925,-20.38592,-0.3042611,-69.43943,-157.0871,0,0,0,0,0,1,0,0,0,0,0,0,0,0,0,0,0,0,0,0,0,0,0,0,0,326
-22.73737,13.55275,-21.74755,-0.3072873,-68.0775,-157.2514,0,0,0,0,0,1,0,0,0,0,0,0,0,0,0,0,0,0,0,0,0,0,0,0,0,327
-22.73711,14.00865,-23.40164,-0.3110375,-66.42342,-157.2477,0,0,0,0,0,1,0,0,0,0,0,0,0,0,0,0,0,0,0,0,0,0,0,0,0,328
-22.73711,14.48977,-24.95576,-0.3148834,-64.86932,-157.2384,0,0,0,0,0,1,0,0,0,0,0,0,0,0,0,0,0,0,0,0,0,0,0,0,0,329
-22.73711,15.00159,-26.45362,-0.3189,-63.37149,-157.2292,0,0,0,0,0,1,0,0,0,0,0,0,0,0,0,0,0,0,0,0,0,0,0,0,0,330
-22.73711,15.16001,-26.89117,-0.3201364,-62.93396,-157.2265,0,0,0,0,0,1,0,0,0,0,0,0,0,0,0,0,0,0,0,0,0,0,0,0,0,331
-22.73711,15.21796,-27.0485,-0.3205873,-62.77662,-157.2255,0,0,0,0,0,1,0,0,0,0,0,0,0,0,0,0,0,0,0,0,0,0,0,0,0,332
-22.73711,15.22821,-27.07618,-0.3206693,-62.74895,-157.2253,0,0,0,0,0,1,0,0,0,0,0,0,0,0,0,0,0,0,0,0,0,0,0,0,0,333
-22.73711,15.23869,-27.10444,-0.3207512,-62.72068,-157.2251,0,0,0,0,0,1,0,0,0,0,0,0,0,0,0,0,0,0,0,0,0,0,0,0,0,334
-22.73711,15.26205,-27.16725,-0.3209288,-62.65788,-157.2247,0,0,0,0,0,1,0,0,0,0,0,0,0,0,0,0,0,0,0,0,0,0,0,0,0,335
-22.73711,15.29279,-27.24958,-0.3211679,-62.57554,-157.2242,0,0,0,0,0,1,0,0,0,0,0,0,0,0,0,0,0,0,0,0,0,0,0,0,0,336
-22.73711,15.31657,-27.31301,-0.3213524,-62.51211,-157.2238,0,0,0,0,0,1,0,0,0,0,0,0,0,0,0,0,0,0,0,0,0,0,0,0,0,337
-22.73711,15.35312,-27.41008,-0.3216393,-62.41504,-157.2232,0,0,0,0,0,1,0,0,0,0,0,0,0,0,0,0,0,0,0,0,0,0,0,0,0,338
-22.73711,15.37644,-27.47173,-0.3218169,-62.3534,-157.2228,0,0,0,0,0,1,0,0,0,0,0,0,0,0,0,0,0,0,0,0,0,0,0,0,0,339
-22.73711,15.40375,-27.54365,-0.3220286,-62.28148,-157.2224,0,0,0,0,0,1,0,0,0,0,0,0,0,0,0,0,0,0,0,0,0,0,0,0,0,340
-22.73711,15.42724,-27.60529,-0.3222131,-62.21985,-157.222,0,0,0,0,0,1,0,0,0,0,0,0,0,0,0,0,0,0,0,0,0,0,0,0,0,341
-22.73711,15.45081,-27.66693,-0.3223975,-62.15821,-157.2216,0,0,0,0,0,1,0,0,0,0,0,0,0,0,0,0,0,0,0,0,0,0,0,0,0,342
-22.73711,15.47643,-27.73368,-0.3225956,-62.09145,-157.2211,0,0,0,0,0,1,0,0,0,0,0,0,0,0,0,0,0,0,0,0,0,0,0,0,0,343
-22.73711,15.50214,-27.80044,-0.3227937,-62.0247,-157.2207,0,0,0,0,0,1,0,0,0,0,0,0,0,0,0,0,0,0,0,0,0,0,0,0,0,344
-22.73711,15.52794,-27.8672,-0.3229918,-61.95794,-157.2203,0,0,0,0,0,1,0,0,0,0,0,0,0,0,0,0,0,0,0,0,0,0,0,0,0,345
-22.73711,15.55184,-27.92881,-0.3231831,-61.89632,-157.2199,0,0,0,0,0,1,0,0,0,0,0,0,0,0,0,0,0,0,0,0,0,0,0,0,0,346
-22.73711,15.58984,-28.02634,-0.3234768,-61.79879,-157.2193,0,0,0,0,0,1,0,0,0,0,0,0,0,0,0,0,0,0,0,0,0,0,0,0,0,347
-22.73711,15.62804,-28.12389,-0.3237706,-61.70126,-157.2186,0,0,0,0,0,1,0,0,0,0,0,0,0,0,0,0,0,0,0,0,0,0,0,0,0,348
-22.73711,15.65429,-28.19061,-0.3239755,-61.63454,-157.2182,0,0,0,0,0,1,0,0,0,0,0,0,0,0,0,0,0,0,0,0,0,0,0,0,0,349
-22.73711,15.68063,-28.25732,-0.3241804,-61.56783,-157.2178,0,0,0,0,0,1,0,0,0,0,0,0,0,0,0,0,0,0,0,0,0,0,0,0,0,350
-22.73711,15.70706,-28.32403,-0.3243853,-61.50111,-157.2174,0,0,0,0,0,1,0,0,0,0,0,0,0,0,0,0,0,0,0,0,0,0,0,0,0,351
-22.73711,15.73357,-28.39073,-0.3245903,-61.43441,-157.2169,0,0,0,0,0,1,0,0,0,0,0,0,0,0,0,0,0,0,0,0,0,0,0,0,0,352
-22.73711,15.77045,-28.48309,-0.3248703,-61.34207,-157.2164,0,0,0,0,0,1,0,0,0,0,0,0,0,0,0,0,0,0,0,0,0,0,0,0,0,353
-22.73711,15.81163,-28.58569,-0.3251914,-61.23947,-157.2157,0,0,0,0,0,1,0,0,0,0,0,0,0,0,0,0,0,0,0,0,0,0,0,0,0,354
-22.73711,15.83643,-28.64723,-0.3253827,-61.17792,-157.2153,0,0,0,0,0,1,0,0,0,0,0,0,0,0,0,0,0,0,0,0,0,0,0,0,0,355
-22.73711,15.8634,-28.7139,-0.3255945,-61.11125,-157.2148,0,0,0,0,0,1,0,0,0,0,0,0,0,0,0,0,0,0,0,0,0,0,0,0,0,356
-22.73711,15.90297,-28.81134,-0.3259018,-61.01381,-157.2142,0,0,0,0,0,1,0,0,0,0,0,0,0,0,0,0,0,0,0,0,0,0,0,0,0,357
-22.73711,15.93016,-28.878,-0.3261068,-60.94715,-157.2138,0,0,0,0,0,1,0,0,0,0,0,0,0,0,0,0,0,0,0,0,0,0,0,0,0,358
-22.73711,15.97007,-28.97541,-0.326421,-60.84974,-157.2132,0,0,0,0,0,1,0,0,0,0,0,0,0,0,0,0,0,0,0,0,0,0,0,0,0,359
-22.73711,16.01016,-29.07283,-0.3267284,-60.75233,-157.2125,0,0,0,0,0,1,0,0,0,0,0,0,0,0,0,0,0,0,0,0,0,0,0,0,0,360
-22.73711,16.0377,-29.13946,-0.3269401,-60.68569,-157.2121,0,0,0,0,0,1,0,0,0,0,0,0,0,0,0,0,0,0,0,0,0,0,0,0,0,361
-22.73711,16.06321,-29.20095,-0.3271383,-60.62421,-157.2117,0,0,0,0,0,1,0,0,0,0,0,0,0,0,0,0,0,0,0,0,0,0,0,0,0,362
-22.73711,16.09093,-29.26758,-0.3273568,-60.55759,-157.2112,0,0,0,0,0,1,0,0,0,0,0,0,0,0,0,0,0,0,0,0,0,0,0,0,0,363
-22.73711,16.13161,-29.36494,-0.3276711,-60.46023,-157.2106,0,0,0,0,0,1,0,0,0,0,0,0,0,0,0,0,0,0,0,0,0,0,0,0,0,364
-22.73711,16.15951,-29.43142,-0.3278828,-60.39374,-157.2102,0,0,0,0,0,1,0,0,0,0,0,0,0,0,0,0,0,0,0,0,0,0,0,0,0,365
-22.73711,16.1847,-29.49126,-0.3280809,-60.3339,-157.2098,0,0,0,0,0,1,0,0,0,0,0,0,0,0,0,0,0,0,0,0,0,0,0,0,0,366
-22.73711,16.21037,-29.55209,-0.328279,-60.27308,-157.2094,0,0,0,0,0,1,0,0,0,0,0,0,0,0,0,0,0,0,0,0,0,0,0,0,0,367
-22.73711,16.2333,-29.60625,-0.3284566,-60.21893,-157.209,0,0,0,0,0,1,0,0,0,0,0,0,0,0,0,0,0,0,0,0,0,0,0,0,0,368
-22.73711,16.25236,-29.65116,-0.3286001,-60.17402,-157.2087,0,0,0,0,0,1,0,0,0,0,0,0,0,0,0,0,0,0,0,0,0,0,0,0,0,369
-22.73711,16.27129,-29.69565,-0.3287504,-60.12952,-157.2084,0,0,0,0,0,1,0,0,0,0,0,0,0,0,0,0,0,0,0,0,0,0,0,0,0,370
-22.73711,16.28066,-29.71763,-0.3288187,-60.10754,-157.2083,0,0,0,0,0,1,0,0,0,0,0,0,0,0,0,0,0,0,0,0,0,0,0,0,0,371
-22.73711,16.28327,-29.72376,-0.3288392,-60.1014,-157.2082,0,0,0,0,0,1,0,0,0,0,0,0,0,0,0,0,0,0,0,0,0,0,0,0,0,372
-22.73711,16.28412,-29.72575,-0.328846,-60.09941,-157.2082,0,0,0,0,0,1,0,0,0,0,0,0,0,0,0,0,0,0,0,0,0,0,0,0,0,373
-22.73711,16.28412,-29.72575,-0.328846,-60.09941,-157.2082,0,0,0,0,0,1,0,0,0,0,0,0,0,0,0,0,0,0,0,0,0,0,0,1,0,374
-22.73711,16.28412,-29.72575,-0.328846,-60.09941,-157.2082,0,0,0,0,0,1,0,0,0,0,0,0,0,0,0,0,0,0,0,0,0,0,0,1,0,375
-22.73711,16.28412,-29.72575,-0.328846,-60.09941,-157.2082,0,0,0,0,0,1,0,0,0,0,0,0,0,0,0,0,0,0,0,0,0,0,0,1,0,376
-22.73711,16.28412,-29.72575,-0.328846,-60.09941,-157.2082,0,0,0,0,0,1,0,0,0,0,0,0,0,0,0,0,0,0,0,0,0,0,0,1,0,377
-22.73711,16.28412,-29.72575,-0.328846,-60.09941,-157.2082,0,0,0,0,0,1,0,0,0,0,0,0,0,0,0,0,0,0,0,0,0,0,0,1,0,378
-22.73711,16.28412,-29.72575,-0.328846,-60.09941,-157.2082,0,0,0,0,0,1,0,0,0,0,0,0,0,0,0,0,0,0,0,0,0,0,0,1,0,379
-22.73711,16.28412,-29.72575,-0.328846,-60.09941,-157.2082,0,0,0,0,0,1,0,0,0,0,0,0,0,0,0,0,0,0,0,0,0,0,0,1,0,380
-22.73711,16.28412,-29.72575,-0.328846,-60.09941,-157.2082,0,0,0,0,0,1,0,0,0,0,0,0,0,0,0,0,0,0,0,0,0,0,0,1,0,381
-22.73711,16.28412,-29.72575,-0.328846,-60.09941,-157.2082,0,0,0,0,0,1,0,0,0,0,0,0,0,0,0,0,0,0,0,0,0,0,0,1,0,382
-22.73711,16.28412,-29.72575,-0.328846,-60.09941,-157.2082,0,0,0,0,0,1,0,0,0,0,0,0,0,0,0,0,0,0,0,0,0,0,0,1,0,383
-22.73711,16.28412,-29.72575,-0.328846,-60.09941,-157.2082,0,0,0,0,0,1,0,0,0,0,0,0,0,0,0,0,0,0,0,0,0,0,0,1,0,384
-22.73711,16.28412,-29.72575,-0.328846,-60.09941,-157.2082,0,0,0,0,0,1,0,0,0,0,0,0,0,0,0,0,0,0,0,0,0,0,0,1,0,385
-22.73711,16.28412,-29.72575,-0.328846,-60.09941,-157.2082,0,0,0,0,0,1,0,0,0,0,0,0,0,0,0,0,0,0,0,0,0,0,0,1,0,386
-22.73711,16.28412,-29.72575,-0.328846,-60.09941,-157.2082,0,0,0,0,0,1,0,0,0,0,0,0,0,0,0,0,0,0,0,0,0,0,0,1,0,387
-22.73711,16.28299,-29.72308,-0.3288392,-60.10209,-157.2082,0,0,0,0,0,1,0,0,0,0,0,0,0,0,0,0,0,0,0,0,0,0,0,0,0,388
-22.73711,16.24827,-29.64151,-0.3285728,-60.18366,-157.2088,0,0,0,0,0,1,0,0,0,0,0,0,0,0,0,0,0,0,0,0,0,0,0,0,0,389
-22.73711,16.11727,-29.33066,-0.327555,-60.4945,-157.2108,0,0,0,0,0,1,0,0,0,0,0,0,0,0,0,0,0,0,0,0,0,0,0,0,0,390
-22.73711,15.88353,-28.76352,-0.3257516,-61.06163,-157.2145,0,0,0,0,0,1,0,0,0,0,0,0,0,0,0,0,0,0,0,0,0,0,0,0,0,391
-22.73711,15.52663,-27.86382,-0.322985,-61.96132,-157.2203,0,0,0,0,0,1,0,0,0,0,0,0,0,0,0,0,0,0,0,0,0,0,0,0,0,392
-22.73711,15.12925,-26.80708,-0.3198974,-63.01804,-157.227,0,0,0,0,0,1,0,0,0,0,0,0,0,0,0,0,0,0,0,0,0,0,0,0,0,393
-22.73711,14.44112,-24.80578,-0.314494,-65.01929,-157.2393,0,0,0,0,0,1,0,0,0,0,0,0,0,0,0,0,0,0,0,0,0,0,0,0,0,394
-22.73711,13.87654,-22.94356,-0.309965,-66.8815,-157.2504,0,0,0,0,0,1,0,0,0,0,0,0,0,0,0,0,0,0,0,0,0,0,0,0,0,395
-22.73711,13.59183,-21.89906,-0.307622,-67.92598,-157.2565,0,0,0,0,0,1,0,0,0,0,0,0,0,0,0,0,0,0,0,0,0,0,0,0,0,396
-22.73711,13.35106,-20.94175,-0.3056,-68.88328,-157.2621,0,0,0,0,0,1,0,0,0,0,0,0,0,0,0,0,0,0,0,0,0,0,0,0,0,397
-22.73711,13.17549,-20.18988,-0.3040835,-69.63515,-157.2663,0,0,0,0,0,1,0,0,0,0,0,0,0,0,0,0,0,0,0,0,0,0,0,0,0,398
-22.73711,13.06037,-19.66681,-0.3030657,-70.1582,-157.2693,0,0,0,0,0,1,0,0,0,0,0,0,0,0,0,0,0,0,0,0,0,0,0,0,0,399
-22.73711,12.95284,-19.15276,-0.3021025,-70.67225,-157.2722,0,0,0,0,0,1,0,0,0,0,0,0,0,0,0,0,0,0,0,0,0,0,0,0,0,400
-22.73711,12.92187,-18.99951,-0.3018224,-70.8255,-157.273,0,0,0,0,0,1,0,0,0,0,0,0,0,0,0,0,0,0,0,0,0,0,0,0,0,401
-22.73711,12.91186,-18.94943,-0.3017268,-70.87558,-157.2733,0,0,0,0,0,1,0,0,0,0,0,0,0,0,0,0,0,0,0,0,0,0,0,0,0,402
-22.73705,12.91081,-18.94475,-0.3017268,-70.88025,-157.2727,0,0,0,0,0,1,0,0,0,0,0,0,0,0,0,0,0,0,0,0,0,0,0,0,0,403
-22.71444,12.85712,-18.92717,-0.303496,-70.89781,-157.0297,0,0,0,0,0,1,0,0,0,0,0,0,0,0,0,0,0,0,0,0,0,0,0,0,0,404
-22.47948,12.2993,-18.74447,-0.3219125,-71.08038,-154.5049,0,0,0,0,0,1,0,0,0,0,0,0,0,0,0,0,0,0,0,0,0,0,0,0,0,405
-22.1147,11.43325,-18.46083,-0.3505004,-71.3638,-150.5849,0,0,0,0,0,1,0,0,0,0,0,0,0,0,0,0,0,0,0,0,0,0,0,0,0,406
-21.47889,9.92376,-17.96645,-0.400326,-71.8578,-143.7525,0,0,0,0,0,1,0,0,0,0,0,0,0,0,0,0,0,0,0,0,0,0,0,0,0,407
-20.64527,7.944636,-17.31826,-0.465658,-72.50549,-134.7945,0,0,0,0,0,1,0,0,0,0,0,0,0,0,0,0,0,0,0,0,0,0,0,0,0,408
-19.6992,5.69856,-16.58264,-0.539802,-73.24055,-124.6281,0,0,0,0,0,1,0,0,0,0,0,0,0,0,0,0,0,0,0,0,0,0,0,0,0,409
-18.78742,3.533879,-15.87367,-0.6112615,-73.94897,-114.8302,0,0,0,0,0,1,0,0,0,0,0,0,0,0,0,0,0,0,0,0,0,0,0,0,0,410
-17.37434,0.1790326,-14.77491,-0.7220063,-75.04689,-99.64522,0,0,0,0,0,1,0,0,0,0,0,0,0,0,0,0,0,0,0,0,0,0,0,0,0,411
-15.96966,-3.155841,-13.68269,-0.8320951,-76.13827,-84.55064,0,0,0,0,0,1,0,0,0,0,0,0,0,0,0,0,0,0,0,0,0,0,0,0,0,412
-15.08687,-5.251706,-12.99627,-0.9012799,-76.82417,-75.06419,0,0,0,0,0,1,0,0,0,0,0,0,0,0,0,0,0,0,0,0,0,0,0,0,0,413
-14.28268,-7.160963,-12.37096,-0.9643031,-77.44899,-66.42235,0,0,0,0,0,1,0,0,0,0,0,0,0,0,0,0,0,0,0,0,0,0,0,0,0,414
-13.48105,-9.064128,-11.74764,-1.027128,-78.07182,-57.80809,0,0,0,0,0,1,0,0,0,0,0,0,0,0,0,0,0,0,0,0,0,0,0,0,0,415
-12.54583,-11.28444,-11.02046,-1.100425,-78.79845,-47.75835,0,0,0,0,0,1,0,0,0,0,0,0,0,0,0,0,0,0,0,0,0,0,0,0,0,416
-11.67742,-13.34616,-10.34522,-1.168483,-79.47318,-38.42646,0,0,0,0,0,1,0,0,0,0,0,0,0,0,0,0,0,0,0,0,0,0,0,0,0,417
-10.87581,-15.24928,-9.721919,-1.231308,-80.09599,-29.8124,0,0,0,0,0,1,0,0,0,0,0,0,0,0,0,0,0,0,0,0,0,0,0,0,0,418
-9.606596,-18.26256,-8.735024,-1.330774,-81.08212,-16.17347,0,0,0,0,0,1,0,0,0,0,0,0,0,0,0,0,0,0,0,0,0,0,0,0,0,419
-8.738189,-20.32427,-8.059783,-1.398832,-81.75684,-6.841569,0,0,0,0,0,1,0,0,0,0,0,0,0,0,0,0,0,0,0,0,0,0,0,0,0,420
-7.936579,-22.2274,-7.436484,-1.461657,-82.37967,1.772483,0,0,0,0,0,1,0,0,0,0,0,0,0,0,0,0,0,0,0,0,0,0,0,0,0,421
-6.667361,-25.24067,-6.449592,-1.561131,-83.36581,15.41142,0,0,0,0,0,1,0,0,0,0,0,0,0,0,0,0,0,0,0,0,0,0,0,0,0,422
-5.798954,-27.30239,-5.774351,-1.629188,-84.04052,24.74331,0,0,0,0,0,1,0,0,0,0,0,0,0,0,0,0,0,0,0,0,0,0,0,0,0,423
-4.93054,-29.3641,-5.099107,-1.697246,-84.71524,34.07521,0,0,0,0,0,1,0,0,0,0,0,0,0,0,0,0,0,0,0,0,0,0,0,0,0,424
-4.06511,-31.41875,-4.42618,-1.765071,-85.38765,43.37511,0,0,0,0,0,1,0,0,0,0,0,0,0,0,0,0,0,0,0,0,0,0,0,0,0,425
-3.288496,-33.26254,-3.822316,-1.825936,-85.99106,51.72058,0,0,0,0,0,1,0,0,0,0,0,0,0,0,0,0,0,0,0,0,0,0,0,0,0,426
-2.109402,-36.06185,-2.905499,-1.918339,-86.90717,64.39104,0,1,0,0,0,1,0,0,0,0,0,0,0,0,0,0,0,0,0,0,0,0,0,0,0,427
-1.510919,-37.48272,-2.440144,-1.965248,-87.37216,70.8223,0,1,0,0,0,1,0,0,0,0,0,0,0,0,0,0,0,0,0,0,0,0,0,0,0,428
-0.8005279,-39.16927,-1.887771,-2.020921,-87.92411,78.45614,0,1,0,0,0,1,0,0,0,0,0,0,0,0,0,0,0,0,0,0,0,0,0,0,0,429
-0.4986959,-39.88587,-1.65308,-2.044577,-88.15862,81.69961,0,1,0,0,0,1,0,0,0,0,0,0,0,0,0,0,0,0,0,0,0,0,0,0,0,430
-0.3179679,-40.31493,-1.512553,-2.058737,-88.29904,83.64169,0,1,0,0,0,1,0,0,0,0,0,0,0,0,0,0,0,0,0,0,0,0,0,0,0,431
-0.2272907,-40.53021,-1.442044,-2.065848,-88.36949,84.61611,0,1,0,0,0,1,0,0,0,0,0,0,0,0,0,0,0,0,0,0,0,0,0,0,0,432
-0.1955998,-40.60546,-1.417401,-2.068328,-88.39413,84.9567,0,1,0,0,0,1,0,0,0,0,0,0,0,0,0,0,0,0,0,0,0,0,0,0,0,433
-0.1918363,-40.61439,-1.414477,-2.068622,-88.39704,84.99712,0,1,0,0,0,1,0,0,0,0,0,0,0,0,0,0,0,0,0,0,0,0,0,0,0,434
-0.1918363,-40.61439,-1.414477,-2.068622,-88.39704,84.99712,0,1,0,0,0,1,0,0,0,0,0,0,0,0,0,0,0,0,0,0,0,0,0,0,0,435
-0.1918363,-40.61439,-1.414477,-2.068622,-88.39704,84.99712,0,0,0,1,0,1,0,0,0,0,0,0,0,0,0,0,0,0,0,0,0,0,0,0,0,436
-0.1918363,-40.61439,-1.414477,-2.068622,-88.39704,84.99712,0,0,0,1,0,1,0,0,0,0,0,0,0,0,0,0,0,0,0,0,0,0,0,0,0,437
-0.1918363,-40.61439,-1.414477,-2.068622,-88.39704,84.99712,0,0,0,1,0,1,0,0,0,0,0,0,0,0,0,0,0,0,0,0,0,0,0,0,0,438
-0.1918363,-40.61439,-1.414477,-2.068622,-88.39704,84.99712,0,0,0,1,0,1,0,0,0,0,0,0,0,0,0,0,0,0,0,0,0,0,0,0,0,439
-0.1918363,-40.61439,-1.414477,-2.068622,-88.39704,84.99712,0,0,0,1,0,1,0,0,0,0,0,0,0,0,0,0,0,0,0,0,0,0,0,0,0,440
-0.1918363,-40.61439,-1.414477,-2.068622,-88.39704,84.99712,0,0,0,1,0,1,0,0,0,0,0,0,0,0,0,0,0,0,0,0,0,0,0,0,0,441
-0.1918363,-40.61439,-1.414477,-2.068622,-88.39704,84.99712,0,0,0,1,0,1,0,0,0,0,0,0,0,0,0,0,0,0,0,0,0,0,0,0,0,442
-0.1918363,-40.61439,-1.414477,-2.068622,-88.39704,84.99712,0,0,0,1,0,1,0,0,0,0,0,0,0,0,0,0,0,0,0,0,0,0,0,0,0,443
-0.1918363,-40.61439,-1.414477,-2.068622,-88.39704,84.99712,0,0,0,1,0,1,0,0,0,0,0,0,0,0,0,0,0,0,0,0,0,0,0,0,0,444
-0.1918363,-40.61439,-1.414477,-2.068622,-88.39704,84.99712,0,0,0,1,0,1,0,0,0,0,0,0,0,0,0,0,0,0,0,0,0,0,0,0,0,445
-0.3506096,-40.45391,-1.394299,-2.055629,-88.43322,84.58141,0,0,0,0,0,0,0,0,0,0,0,0,0,0,0,0,0,0,0,0,0,0,0,0,0,446
-0.9158984,-39.88255,-1.322461,-2.009356,-88.56201,83.1013,0,0,0,0,0,0,0,0,0,0,0,0,0,0,0,0,0,0,0,0,0,0,0,0,0,447
-3.227061,-37.5466,-1.02875,-1.82017,-89.08859,77.04997,0,0,0,0,0,0,0,0,0,0,0,0,0,0,0,0,0,0,0,0,0,0,0,0,0,448
-6.029746,-34.71385,-0.6725724,-1.59075,-89.72717,69.71169,0,0,0,0,0,0,0,0,0,0,0,0,0,0,0,0,0,0,0,0,0,0,0,0,0,449
-9.525115,-31.18098,-0.2283698,-1.304632,-90.52356,60.55976,0,0,0,0,0,0,0,0,0,0,0,0,0,0,0,0,0,0,0,0,0,0,0,0,0,450
-13.20543,-27.46118,0.2393356,-1.003377,-91.36208,50.92357,0,0,0,0,0,0,0,0,0,0,0,0,0,0,0,0,0,0,0,0,0,0,0,0,0,451
-16.61117,-24.01891,0.6721513,-0.7245883,-92.13805,42.00631,0,0,0,0,0,0,0,0,0,0,0,0,0,0,0,0,0,0,0,0,0,0,0,0,0,452
-19.20874,-21.39347,1.00226,-0.5119656,-92.7299,35.20508,0,0,0,0,0,0,0,0,0,0,0,0,0,0,0,0,0,0,0,0,0,0,0,0,0,453
-21.27855,-19.30145,1.265298,-0.3425354,-93.20148,29.78566,0,0,0,0,0,0,0,0,0,0,0,0,0,0,0,0,0,0,0,0,0,0,0,0,0,454
-22.61167,-17.95403,1.434714,-0.2334096,-93.50523,26.29517,0,0,0,0,0,0,0,0,0,0,0,0,0,0,0,0,0,0,0,0,0,0,0,0,0,455
-23.39266,-17.16467,1.533967,-0.169478,-93.68317,24.2503,0,0,0,0,0,0,0,0,0,0,0,0,0,0,0,0,0,0,0,0,0,0,0,0,0,456
-23.76602,-16.78729,1.581414,-0.1389159,-93.76824,23.2727,0,0,0,0,0,0,0,0,0,0,0,0,0,0,0,0,0,0,0,0,0,0,0,0,0,457
-23.9235,-16.62813,1.60143,-0.1260258,-93.80412,22.86038,0,0,0,0,0,0,0,0,0,0,0,0,0,0,0,0,0,0,0,0,0,0,0,0,0,458
-23.94806,-16.60331,1.604549,-0.1240174,-93.80972,22.79609,0,0,0,0,0,0,0,0,0,0,0,0,0,0,0,0,0,0,0,0,0,0,0,0,0,459
-23.94806,-16.6033,1.604549,-0.1240174,-93.80972,22.79608,0,1,0,0,0,0,0,0,0,0,0,0,0,0,0,0,0,0,0,0,0,0,0,0,0,460
-23.94806,-16.6033,1.604549,-0.1240174,-93.80972,22.79608,0,1,0,0,0,0,0,0,0,0,0,0,0,0,0,0,0,0,0,0,0,0,0,0,0,461
-23.94806,-16.6033,1.604549,-0.1240174,-93.80972,22.79608,0,1,0,0,0,0,0,0,0,0,0,0,0,0,0,0,0,0,0,0,0,0,0,0,0,462
-23.94806,-16.6033,1.604549,-0.1240174,-93.80972,22.79608,0,1,0,0,0,0,0,0,0,0,0,0,0,0,0,0,0,0,0,0,0,0,0,0,0,463
-23.94806,-16.6033,1.604549,-0.1240174,-93.80972,22.79608,0,1,0,0,0,0,0,0,0,0,0,0,0,0,0,0,0,0,0,0,0,0,0,0,0,464
-23.94806,-16.6033,1.604549,-0.1240174,-93.80972,22.79608,0,1,0,0,0,0,0,0,0,0,0,0,0,0,0,0,0,0,0,0,0,0,0,0,0,465
-23.94806,-16.6033,1.604549,-0.1240174,-93.80972,22.79608,0,1,0,0,0,0,0,0,0,0,0,0,0,0,0,0,0,0,0,0,0,0,0,0,0,466
-23.94806,-16.6033,1.604549,-0.1240174,-93.80972,22.79608,0,1,0,0,0,0,0,0,0,0,0,0,0,0,0,0,0,0,0,0,0,0,0,0,0,467
-23.94806,-16.6033,1.604549,-0.1240174,-93.80972,22.79608,0,1,0,0,0,0,0,0,0,0,0,0,0,0,0,0,0,0,0,0,0,0,0,0,0,468
-23.94806,-16.6033,1.604549,-0.1240174,-93.80972,22.79608,0,0,0,0,0,0,0,0,0,0,0,1,0,0,0,0,0,0,0,0,0,0,0,0,0,469
-23.94806,-16.6033,1.604549,-0.1240174,-93.80972,22.79608,0,0,0,0,0,0,0,0,0,0,0,1,0,0,0,0,0,0,0,0,0,0,0,0,0,470
-23.94806,-16.6033,1.604549,-0.1240174,-93.80972,22.79608,0,0,0,0,0,0,0,0,0,0,0,1,0,0,0,0,0,0,0,0,0,0,0,0,0,471
-23.94806,-16.6033,1.604549,-0.1240174,-93.80972,22.79608,0,0,0,0,0,0,0,0,0,0,0,1,0,0,0,0,0,0,0,0,0,0,0,0,0,472
-23.94806,-16.6033,1.604549,-0.1240174,-93.80972,22.79608,0,0,0,0,0,0,0,0,0,0,0,1,0,0,0,0,0,0,0,0,0,0,0,0,0,473
-23.90535,-16.53409,1.567756,-0.1252539,-93.76572,22.76412,0,0,0,0,0,0,0,0,0,0,0,1,0,0,0,0,0,0,0,0,0,0,0,0,0,474
-23.6761,-16.15878,1.369765,-0.1316887,-93.52882,22.59309,0,0,0,0,0,0,0,0,0,0,0,1,0,0,0,0,0,0,0,0,0,0,0,0,0,475
-23.18298,-15.32874,0.9410497,-0.1443534,-93.01459,22.22808,0,0,0,0,0,0,0,0,0,0,0,1,0,0,0,0,0,0,0,0,0,0,0,0,0,476
-21.76433,-12.75505,-0.3095462,-0.1712677,-91.5032,21.20142,0,0,0,0,0,0,0,0,0,0,0,1,0,0,0,0,0,0,0,0,0,0,0,0,0,477
-20.55082,-10.30965,-1.390271,-0.1819856,-90.18041,20.35318,0,0,0,0,0,0,0,0,0,0,0,1,0,0,0,0,0,0,0,0,0,0,0,0,0,478
-19.23912,-7.374825,-2.552633,-0.1790961,-88.7343,19.47097,0,0,0,0,0,0,0,0,0,0,0,1,0,0,0,0,0,0,0,0,0,0,0,0,0,479
-18.20014,-4.803761,-3.452607,-0.1647372,-87.59131,18.80055,0,0,0,0,0,0,0,0,0,0,0,1,0,0,0,0,0,0,0,0,0,0,0,0,0,480
-17.2079,-2.115232,-4.277296,-0.1397493,-86.51766,18.1863,0,0,0,0,0,0,0,0,0,0,0,1,0,0,0,0,0,0,0,0,0,0,0,0,0,481
-16.0435,1.37456,-5.17234,-0.09448688,-85.30689,17.5018,0,0,0,0,0,0,0,0,0,0,0,1,0,0,0,0,0,0,0,0,0,0,0,0,0,482
-15.48516,3.193811,-5.560965,-0.06596047,-84.75687,17.18903,0,0,0,0,0,0,0,0,0,0,0,1,0,0,0,0,0,0,0,0,0,0,0,0,0,483
-15.03436,4.739814,-5.849434,-0.03938092,-84.33295,16.94447,0,0,0,0,0,0,0,0,0,0,0,1,0,0,0,0,0,0,0,0,0,0,0,0,0,484
-14.72271,5.851875,-6.033258,-0.01905175,-84.05264,16.77981,0,0,0,0,0,0,0,0,0,0,0,1,0,0,0,0,0,0,0,0,0,0,0,0,0,485
-14.52013,6.59481,-6.145055,-0.004938839,-83.87683,16.67479,0,0,0,0,0,0,0,0,0,0,0,1,0,0,0,0,0,0,0,0,0,0,0,0,0,486
-14.46519,6.799108,-6.174253,-0.0009905,-83.83009,16.64659,0,0,0,0,0,0,0,0,0,0,0,1,0,0,0,0,0,0,0,0,0,0,0,0,0,487
-14.45165,6.849671,-6.181376,-6.83E-06,-83.81863,16.63965,0,0,0,0,0,0,0,0,0,0,0,1,0,0,0,0,0,0,0,0,0,0,0,0,0,488
-14.45165,6.849671,-6.181376,-6.83E-06,-83.81863,16.63965,0,0,0,0,0,0,0,0,0,0,0,1,0,0,0,0,0,0,0,0,0,0,0,0,0,489
-14.45165,6.849671,-6.181376,-6.83E-06,-83.81863,16.63965,0,0,0,0,0,0,0,0,0,0,0,1,0,0,0,0,0,0,0,0,0,0,0,0,0,490
-14.45165,6.849671,-6.181376,-6.83E-06,-83.81863,16.63965,0,0,0,0,0,0,0,0,0,0,0,1,0,0,0,0,0,0,0,0,0,0,0,0,0,491
-14.45165,6.849671,-6.181376,-6.83E-06,-83.81863,16.63965,0,0,0,0,0,0,0,0,0,0,0,1,0,0,0,0,0,0,0,0,0,0,0,0,0,492
-14.45165,6.849671,-6.181376,-6.83E-06,-83.81863,16.63965,0,0,0,0,0,0,0,0,0,0,0,1,0,0,0,0,0,0,0,0,0,0,0,0,0,493
-14.45165,6.849671,-6.181376,-6.83E-06,-83.81863,16.63965,0,0,0,0,0,0,0,0,0,0,0,1,0,0,0,0,0,0,0,0,0,0,0,0,0,494
-14.45165,6.849671,-6.181376,-6.83E-06,-83.81863,16.63965,0,0,0,0,0,0,0,0,0,0,0,1,0,0,0,0,0,0,0,0,0,0,0,0,0,495
-14.45165,6.849671,-6.181376,-6.83E-06,-83.81863,16.63965,0,0,0,0,0,0,0,0,0,0,0,1,0,0,0,0,0,0,0,0,0,0,0,0,0,496
-14.45165,6.849671,-6.181376,-6.83E-06,-83.81863,16.63965,0,0,0,0,0,0,0,0,0,0,0,1,0,0,0,0,0,0,0,0,0,0,0,0,0,497
-14.45165,6.849671,-6.181376,-6.83E-06,-83.81863,16.63965,0,0,0,0,0,0,0,0,0,0,0,1,0,0,0,0,0,0,0,0,0,0,0,0,0,498
-14.45165,6.849671,-6.181376,-6.83E-06,-83.81863,16.63965,0,0,0,0,0,0,0,0,0,0,0,1,0,0,0,0,0,0,0,0,0,0,0,0,0,499
-14.45165,6.849671,-6.181376,-6.83E-06,-83.81863,16.63965,0,0,0,0,0,0,0,0,0,0,0,1,0,0,0,0,0,0,0,0,0,0,0,0,0,500
-14.45165,6.849671,-6.181376,-6.83E-06,-83.81863,16.63965,0,0,0,0,0,0,0,0,0,0,0,1,0,0,0,0,0,0,0,0,0,0,0,0,0,501
-14.45165,6.849671,-6.181376,-6.83E-06,-83.81863,16.63965,0,0,0,0,0,0,0,0,0,0,0,1,0,0,0,0,0,0,0,0,0,0,0,0,0,502
-14.45165,6.849671,-6.181376,-6.83E-06,-83.81863,16.63965,0,0,0,0,0,0,0,0,0,0,0,1,0,0,0,0,0,0,0,0,0,0,0,0,0,503
-14.45165,6.849671,-6.181376,-6.83E-06,-83.81863,16.63965,0,0,0,0,0,0,0,0,0,0,0,1,0,0,0,0,0,0,0,0,0,0,0,0,0,504
-14.45165,6.849671,-6.181376,-6.83E-06,-83.81863,16.63965,0,0,0,0,0,0,0,0,0,0,0,1,0,0,0,0,0,0,0,0,0,0,0,0,0,505
-14.45165,6.849671,-6.181376,-6.83E-06,-83.81863,16.63965,0,0,0,0,0,0,0,0,0,0,0,1,0,0,0,0,0,0,0,0,0,0,0,0,0,506
-14.45165,6.849671,-6.181376,-6.83E-06,-83.81863,16.63965,0,0,0,0,0,0,0,0,0,0,0,1,0,0,0,0,0,0,0,0,0,0,0,0,0,507
-14.45165,6.849671,-6.181376,-6.83E-06,-83.81863,16.63965,0,0,0,0,0,0,0,0,0,0,0,1,0,0,0,0,0,0,0,0,0,0,0,0,0,508
-14.45165,6.849671,-6.181376,-6.83E-06,-83.81863,16.63965,0,0,0,0,0,0,0,0,0,0,0,1,0,0,0,0,0,0,0,0,0,0,0,0,0,509
-14.45165,6.849671,-6.181376,-6.83E-06,-83.81863,16.63965,0,0,0,0,0,0,0,0,0,0,0,1,0,0,0,0,0,0,0,0,0,0,0,0,0,510
-14.45165,6.849671,-6.181376,-6.83E-06,-83.81863,16.63965,0,0,0,0,0,0,0,0,0,0,0,1,0,0,0,0,0,0,0,0,0,0,0,0,0,511
-14.45165,6.849671,-6.181376,-6.83E-06,-83.81863,16.63965,0,0,0,0,0,0,0,0,0,0,0,1,0,0,0,0,0,0,0,0,0,0,0,0,0,512
-14.45165,6.849671,-6.181376,-6.83E-06,-83.81863,16.63965,0,0,0,0,0,0,0,0,0,0,0,1,0,0,0,0,0,0,0,0,0,0,0,0,0,513
-14.45165,6.849671,-6.181376,-6.83E-06,-83.81863,16.63965,0,0,0,0,0,0,0,0,0,0,0,1,0,0,0,0,0,0,0,0,0,0,0,0,0,514
-14.45165,6.849671,-6.181376,-6.83E-06,-83.81863,16.63965,0,0,0,0,0,0,0,0,0,0,0,1,0,0,0,0,0,0,0,0,0,0,0,0,0,515
-14.45165,6.849671,-6.181376,-6.83E-06,-83.81863,16.63965,0,0,0,0,0,0,0,0,0,0,0,1,0,0,0,0,0,0,0,0,0,0,0,0,0,516
-14.45165,6.849671,-6.181376,-6.83E-06,-83.81863,16.63965,0,0,0,0,0,0,0,0,0,0,0,1,0,0,0,0,0,0,0,0,0,0,0,0,0,517
-14.45165,6.849671,-6.181376,-6.83E-06,-83.81863,16.63965,0,0,0,0,0,0,0,0,0,0,0,1,0,0,0,0,0,0,0,0,0,0,0,0,0,518
-14.45165,6.849671,-6.181376,-6.83E-06,-83.81863,16.63965,0,0,0,0,0,0,0,0,0,0,0,1,0,0,0,0,0,0,0,0,0,0,0,0,0,519
-14.45165,6.849671,-6.181376,-6.83E-06,-83.81863,16.63965,0,0,0,0,0,0,0,0,0,0,0,1,0,0,0,0,0,0,0,0,0,0,0,0,0,520
-14.45165,6.849671,-6.181376,-6.83E-06,-83.81863,16.63965,0,0,0,0,0,0,0,0,0,0,0,1,0,0,0,0,0,0,0,0,0,0,0,0,0,521
-14.45165,6.849671,-6.181376,-6.83E-06,-83.81863,16.63965,0,0,0,0,0,0,0,0,0,0,0,1,0,0,0,0,0,0,0,0,0,0,0,0,0,522
-14.45165,6.849671,-6.181376,-6.83E-06,-83.81863,16.63965,0,0,0,0,0,0,0,0,0,0,0,1,0,0,0,0,0,0,0,0,0,0,0,0,0,523
-14.45165,6.849671,-6.181376,-6.83E-06,-83.81863,16.63965,0,0,0,0,0,0,0,0,0,0,0,1,0,0,0,0,0,0,0,0,0,0,0,0,0,524
-14.45165,6.849671,-6.181376,-6.83E-06,-83.81863,16.63965,0,0,0,0,0,0,0,0,0,0,0,1,0,0,0,0,0,0,0,0,0,0,0,0,0,525
-14.45165,6.849671,-6.181376,-6.83E-06,-83.81863,16.63965,0,0,0,0,0,0,0,0,0,0,0,1,0,0,0,0,0,0,0,0,0,0,0,0,0,526
-14.45165,6.849671,-6.181376,-6.83E-06,-83.81863,16.63965,0,0,0,0,0,0,0,0,0,0,0,1,0,0,0,0,0,0,0,0,0,0,0,0,0,527
-14.45165,6.849671,-6.181376,-6.83E-06,-83.81863,16.63965,0,0,0,0,0,0,0,0,0,0,0,1,0,0,0,0,0,0,0,0,0,0,0,0,0,528
-14.45165,6.849671,-6.181376,-6.83E-06,-83.81863,16.63965,0,0,0,0,0,0,0,0,0,0,0,1,0,0,0,0,0,0,0,0,0,0,0,0,0,529
-14.45165,6.849671,-6.181376,-6.83E-06,-83.81863,16.63965,0,0,0,0,0,0,0,0,0,0,0,1,0,0,0,0,0,0,0,0,0,0,0,0,0,530
-14.45165,6.849671,-6.181376,-6.83E-06,-83.81863,16.63965,0,0,0,0,0,0,0,0,0,0,0,1,0,0,0,0,0,0,0,0,0,0,0,0,0,531
-14.44993,6.83298,-6.199585,-0.1080533,-83.78208,16.73968,0,0,0,0,0,0,0,0,0,0,0,1,0,0,0,0,0,0,0,0,0,0,0,0,0,532
-14.43812,6.717687,-6.325394,-0.8545009,-83.5296,17.4308,0,0,0,0,0,0,0,0,0,0,0,1,0,0,0,0,0,0,0,0,0,0,0,0,0,533
-14.37638,6.115157,-6.98286,-4.755377,-82.21017,21.04251,0,0,0,0,0,0,0,0,0,0,0,1,0,0,0,0,0,0,0,0,0,0,0,0,0,534
-14.2387,4.771466,-8.449071,-13.45467,-79.2677,29.09695,0,0,0,0,0,0,0,0,0,0,0,1,0,0,0,0,0,0,0,0,0,0,0,0,0,535
-14.03503,2.783635,-10.61815,-26.32424,-74.91467,41.01252,0,0,0,0,0,0,0,0,0,0,0,1,0,0,0,0,0,0,0,0,0,0,0,0,0,536
-13.87654,1.236797,-12.30603,-36.33875,-71.52734,50.28468,0,0,0,0,0,0,0,0,0,0,0,1,0,0,0,0,0,0,0,0,0,0,0,0,0,537
-13.71383,-0.3510874,-14.0387,-46.61901,-68.05014,59.80288,0,0,0,0,0,0,0,0,0,0,0,1,0,0,0,0,0,0,0,0,0,0,0,0,0,538
-13.56643,-1.789751,-15.60853,-55.93314,-64.8997,68.42659,0,0,0,0,0,0,0,0,0,0,0,1,0,0,0,0,0,0,0,0,0,0,0,0,0,539
-13.41221,-3.29484,-17.25086,-65.67738,-61.60379,77.4485,0,0,0,0,0,0,0,0,0,0,0,1,0,0,0,0,0,0,0,0,0,0,0,0,0,540
-13.26224,-4.75852,-18.84799,-75.1535,-58.39857,86.22218,0,0,0,0,0,0,0,0,0,0,0,1,0,0,0,0,0,0,0,0,0,0,0,0,0,541
-13.11479,-6.197606,-20.4183,-84.47041,-55.2472,94.84845,0,0,0,0,0,0,0,0,0,0,0,1,0,0,0,0,0,0,0,0,0,0,0,0,0,542
-12.98002,-7.512881,-21.8535,-92.98573,-52.36696,102.7325,0,0,0,0,0,0,0,0,0,0,0,1,0,0,0,0,0,0,0,0,0,0,0,0,0,543
-12.83816,-8.897436,-23.3643,-101.9496,-49.33501,111.0319,0,0,0,0,0,0,0,0,0,0,0,1,0,0,0,0,0,0,0,0,0,0,0,0,0,544
-12.705,-10.19693,-24.78227,-110.3627,-46.48933,118.8214,0,0,0,0,0,0,0,0,0,0,0,1,0,0,0,0,0,0,0,0,0,0,0,0,0,545
-12.58514,-11.36679,-26.05881,-117.9366,-43.92752,125.8339,0,0,0,0,0,0,0,0,0,0,0,1,0,0,0,0,0,0,0,0,0,0,0,0,0,546
-12.49023,-12.29307,-27.06954,-123.9335,-41.89913,131.3862,0,0,0,0,0,0,0,0,0,0,0,1,0,0,0,0,0,0,0,0,0,0,0,0,0,547
-12.40867,-13.08864,-27.93909,-129.0877,-40.15679,136.1586,0,0,0,0,0,0,0,0,0,0,0,1,0,0,0,0,0,0,0,0,0,0,0,0,0,548
-12.35108,-13.64681,-28.5621,-132.7357,-38.93281,139.5391,0,0,0,0,0,0,0,0,0,0,0,1,0,0,0,0,0,0,0,0,0,0,0,0,0,549
-12.30271,-14.09771,-29.12822,-135.8371,-37.93652,142.4257,0,0,0,0,0,0,0,0,0,0,0,1,0,0,0,0,0,0,0,0,0,0,0,0,0,550
-12.28841,-14.20913,-29.34827,-136.8008,-37.68057,143.338,0,0,0,0,0,0,0,0,0,0,0,1,0,0,0,0,0,0,0,0,0,0,0,0,0,551
-12.28215,-14.22187,-29.5306,-137.298,-37.63194,143.8326,0,0,0,0,0,0,0,0,0,0,0,1,0,0,0,0,0,0,0,0,0,0,0,0,0,552
-12.28105,-14.1632,-29.70732,-137.5118,-37.73009,144.0794,0,0,0,0,0,0,0,0,0,0,0,1,0,0,0,0,0,0,0,0,0,0,0,0,0,553
-12.28105,-14.07563,-29.91399,-137.6916,-37.88266,144.3068,0,0,0,0,0,0,0,0,0,0,0,1,0,0,0,0,0,0,0,0,0,0,0,0,0,554
-12.28105,-13.98199,-30.13285,-137.88,-38.04476,144.5459,0,0,0,0,0,0,0,0,0,0,0,1,0,0,0,0,0,0,0,0,0,0,0,0,0,555
-12.28105,-13.86153,-30.41125,-138.1172,-38.25166,144.8475,0,0,0,0,0,0,0,0,0,0,0,1,0,0,0,0,0,0,0,0,0,0,0,0,0,556
-12.28105,-13.75251,-30.66035,-138.327,-38.43741,145.1149,0,0,0,0,0,0,0,0,0,0,0,1,0,0,0,0,0,0,0,0,0,0,0,0,0,557
-12.28105,-13.63201,-30.93257,-138.5537,-38.64111,145.4048,0,0,0,0,0,0,0,0,0,0,0,1,0,0,0,0,0,0,0,0,0,0,0,0,0,558
-12.28105,-13.45294,-31.3314,-138.8811,-38.9408,145.8248,0,0,0,0,0,0,0,0,0,0,0,1,0,0,0,0,0,0,0,0,0,0,0,0,0,559
-12.28105,-13.34007,-31.57941,-139.0819,-39.12794,146.0833,0,0,0,0,0,0,0,0,0,0,0,1,0,0,0,0,0,0,0,0,0,0,0,0,0,560
-12.28105,-13.22295,-31.8341,-139.2858,-39.32069,146.3465,0,0,0,0,0,0,0,0,0,0,0,1,0,0,0,0,0,0,0,0,0,0,0,0,0,561
-12.28105,-13.11628,-32.0638,-139.4678,-39.49503,146.5821,0,0,0,0,0,0,0,0,0,0,0,1,0,0,0,0,0,0,0,0,0,0,0,0,0,562
-12.28105,-13.02544,-32.25776,-139.6201,-39.64262,146.7797,0,0,0,0,0,0,0,0,0,0,0,1,0,0,0,0,0,0,0,0,0,0,0,0,0,563
-12.28105,-12.93177,-32.45622,-139.7747,-39.79398,146.9806,0,0,0,0,0,0,0,0,0,0,0,1,0,0,0,0,0,0,0,0,0,0,0,0,0,564
-12.28105,-12.89688,-32.52977,-139.8316,-39.85015,147.0547,0,0,0,0,0,0,0,0,0,0,0,1,0,0,0,0,0,0,0,0,0,0,0,0,0,565
-12.28105,-12.87538,-32.57494,-139.8665,-39.88468,147.1001,0,0,0,0,0,0,0,0,0,0,0,1,0,0,0,0,0,0,0,0,0,0,0,0,0,566
-12.28105,-12.86603,-32.59459,-139.8816,-39.8997,147.1199,0,0,0,0,0,0,0,0,0,0,0,1,0,0,0,0,0,0,0,0,0,0,0,0,0,567
-12.28105,-12.86376,-32.59934,-139.8853,-39.90333,147.1246,0,0,0,0,0,0,0,0,0,0,0,1,0,0,0,0,0,0,0,0,0,0,0,0,0,568
-12.28105,-12.86371,-32.59945,-139.8853,-39.90341,147.1248,1,0,0,0,0,0,0,0,0,0,0,1,0,0,0,0,0,0,0,0,0,0,0,0,0,569
-12.28105,-12.86371,-32.59945,-139.8853,-39.90341,147.1248,1,0,0,0,0,0,0,0,0,0,0,1,0,0,0,0,0,0,0,0,0,0,0,0,0,570
-12.28105,-12.86371,-32.59945,-139.8853,-39.90341,147.1248,1,0,0,0,0,0,0,0,0,0,0,1,0,0,0,0,0,0,0,0,0,0,0,0,0,571
-12.28105,-12.86371,-32.59945,-139.8853,-39.90341,147.1248,1,0,0,0,0,0,0,0,0,0,0,1,0,0,0,0,0,0,0,0,0,0,0,0,0,572
-12.28105,-12.86371,-32.59945,-139.8853,-39.90341,147.1248,1,0,0,0,0,0,0,0,0,0,0,1,0,0,0,0,0,0,0,0,0,0,0,0,0,573
-12.28105,-12.86371,-32.59945,-139.8853,-39.90341,147.1248,1,0,0,0,0,0,0,0,0,0,0,1,0,0,0,0,0,0,0,0,0,0,0,0,0,574
-12.28105,-12.86371,-32.59945,-139.8853,-39.90341,147.1248,1,0,0,0,0,0,0,0,0,0,0,1,0,0,0,0,0,0,0,0,0,0,0,0,0,575
-12.28105,-12.86371,-32.59945,-139.8853,-39.90341,147.1248,1,0,0,0,0,0,0,0,0,0,0,1,0,0,0,0,0,0,0,0,0,0,0,0,0,576
-12.28105,-12.86371,-32.59945,-139.8853,-39.90341,147.1248,1,0,0,0,0,0,0,0,0,0,0,1,0,0,0,0,0,0,0,0,0,0,0,0,0,577
-12.28105,-12.87534,-32.57502,-139.8665,-39.88474,147.1002,0,0,0,0,0,0,0,0,0,0,0,1,0,0,0,0,0,0,0,0,0,0,0,0,0,578
-12.28105,-13.12897,-32.03659,-139.4464,-39.47435,146.5543,0,0,0,0,0,0,0,0,0,0,0,1,0,0,0,0,0,0,0,0,0,0,0,0,0,579
-12.28105,-13.96482,-30.17275,-137.9142,-38.07436,144.5892,0,0,0,0,0,0,0,0,0,0,0,1,0,0,0,0,0,0,0,0,0,0,0,0,0,580
-12.28105,-15.41239,-26.51057,-134.5193,-35.42882,140.354,0,0,0,0,0,0,0,0,0,0,0,1,0,0,0,0,0,0,0,0,0,0,0,0,0,581
-12.28105,-17.14458,-20.75816,-127.9832,-31.62791,132.5214,0,0,0,0,0,0,0,0,0,0,0,1,0,0,0,0,0,0,0,0,0,0,0,0,0,582
-12.28108,-17.79665,-17.64004,-123.7272,-29.79998,127.5724,0,0,0,0,0,0,0,0,0,0,0,1,0,0,0,0,0,0,0,0,0,0,0,0,0,583
-12.32002,-18.09691,-15.44668,-120.3687,-28.66829,123.7366,0,0,0,0,0,0,0,0,0,0,0,1,0,0,0,0,0,0,0,0,0,0,0,0,0,584
-12.53141,-18.0251,-14.46024,-118.5929,-28.36314,121.781,0,0,0,0,0,0,0,0,0,0,0,1,0,0,0,0,0,0,0,0,0,0,0,0,0,585
-13.00979,-17.61826,-14.2649,-117.8429,-28.68255,121.072,0,0,0,0,0,0,0,0,0,0,0,1,0,0,0,0,0,0,0,0,0,0,0,0,0,586
-13.82166,-16.87726,-14.42189,-117.376,-29.45763,120.7819,0,0,0,0,0,0,0,0,0,0,0,1,0,0,0,0,0,0,0,0,0,0,0,0,0,587
-14.95524,-15.8385,-14.68263,-116.7929,-30.55946,120.4549,0,0,0,0,0,0,0,0,0,0,0,1,0,0,0,0,0,0,0,0,0,0,0,0,0,588
-16.63979,-14.29485,-15.0701,-115.9264,-32.19683,119.9689,0,0,0,0,0,0,0,0,0,0,0,1,0,0,0,0,0,0,0,0,0,0,0,0,0,589
-18.54194,-12.55179,-15.50763,-114.948,-34.04572,119.4202,0,0,0,0,0,0,0,0,0,0,0,1,0,0,0,0,0,0,0,0,0,0,0,0,0,590
-20.82726,-10.45762,-16.0333,-113.7725,-36.26704,118.7609,0,0,0,0,0,0,0,0,0,0,0,1,0,0,0,0,0,0,0,0,0,0,0,0,0,591
-23.15805,-8.321775,-16.56942,-112.5737,-38.53256,118.0884,0,0,0,0,0,0,0,0,0,0,0,1,0,0,0,0,0,0,0,0,0,0,0,0,0,592
-25.1846,-6.457908,-17.04375,-111.5255,-40.52015,117.5088,0,0,0,0,0,0,0,0,0,0,0,1,0,0,0,0,0,0,0,0,0,0,0,0,0,593
-27.09036,-4.626677,-17.58379,-110.4738,-42.59358,117.0211,0,0,0,0,0,0,0,0,0,0,0,1,0,0,0,0,0,0,0,0,0,0,0,0,0,594
-28.70282,-2.848176,-18.31523,-109.3911,-44.9446,116.776,0,0,0,0,0,0,0,0,0,0,0,1,0,0,0,0,0,0,0,0,0,0,0,0,0,595
-29.72939,-1.377927,-19.18585,-108.4173,-47.32162,116.8671,0,0,0,0,0,0,0,0,0,0,0,1,0,0,0,0,0,0,0,0,0,0,0,0,0,596
-30.57733,0.3365453,-20.50413,-107.1919,-50.58742,117.3081,0,0,0,0,0,0,0,0,0,0,0,1,0,0,0,0,0,0,0,0,0,0,0,0,0,597
-31.2005,2.119029,-22.099,-105.8514,-54.34835,118.0143,0,0,0,0,0,0,0,0,0,0,0,1,0,0,0,0,0,0,0,0,0,0,0,0,0,598
-31.77366,4.26157,-24.16867,-104.195,-59.11777,119.0317,0,0,0,0,0,0,0,0,0,0,0,1,0,0,0,0,0,0,0,0,0,0,0,0,0,599
-32.27975,6.462837,-26.36693,-102.4718,-64.13501,120.1564,0,0,0,0,0,0,0,0,0,0,0,1,0,0,0,0,0,0,0,0,0,0,0,0,0,600
-32.9288,9.369392,-29.28616,-100.1917,-70.78696,121.6599,0,0,0,0,0,0,0,0,0,0,0,1,0,0,0,0,0,0,0,0,0,0,0,0,0,601
-33.25624,10.83569,-30.75886,-99.04137,-74.14273,122.4184,0,0,0,0,0,0,0,0,0,0,0,1,0,0,0,0,0,0,0,0,0,0,0,0,0,602
-33.53044,12.06361,-31.99214,-98.07809,-76.95296,123.0535,0,0,0,0,0,0,0,0,0,0,0,1,0,0,0,0,0,0,0,0,0,0,0,0,0,603
-33.62014,12.46529,-32.39557,-97.76299,-77.87223,123.2613,0,0,0,0,0,0,0,0,0,0,0,1,0,0,0,0,0,0,0,0,0,0,0,0,0,604
-33.65197,12.60785,-32.53875,-97.65115,-78.19848,123.335,0,0,0,0,0,0,0,0,0,0,0,1,0,0,0,0,0,0,0,0,0,0,0,0,0,605
-33.65536,12.62303,-32.55399,-97.63924,-78.23323,123.3429,0,0,0,0,0,0,0,0,0,0,0,1,0,0,0,0,0,0,0,0,0,0,0,0,0,606
-33.59046,12.33236,-32.26206,-97.86726,-77.56802,123.1925,0,0,0,0,0,0,0,0,0,0,0,1,0,0,0,0,0,0,0,0,0,0,0,0,0,607
-33.42096,11.57334,-31.49973,-98.4627,-75.83092,122.7999,0,0,0,0,0,0,0,0,0,0,0,1,0,0,0,0,0,0,0,0,0,0,0,0,0,608
-33.11023,10.18185,-30.10217,-99.55431,-72.64636,122.0801,0,0,0,0,0,0,0,0,0,0,0,1,0,0,0,0,0,0,0,0,0,0,0,0,0,609
-32.67721,8.242697,-28.15455,-101.0756,-68.2084,121.0771,0,0,0,0,0,0,0,0,0,0,0,1,0,0,0,0,0,0,0,0,0,0,0,0,0,610
-31.98464,4.831868,-24.79421,-103.6687,-60.60215,119.3296,0,0,0,0,0,0,0,0,0,0,0,1,0,0,0,0,0,0,0,0,0,0,0,0,0,611
-31.79444,2.322283,-22.62395,-105.195,-55.92907,118.1216,0,0,0,0,0,0,0,0,0,0,0,1,0,0,0,0,0,0,0,0,0,0,0,0,0,612
-32.00857,-0.04630588,-20.94808,-106.165,-52.65673,117.0772,0,0,0,0,0,0,0,0,0,0,0,1,0,0,0,0,0,0,0,0,0,0,0,0,0,613
-33.26763,-4.149881,-18.8849,-106.7842,-49.55508,115.4839,0,0,0,0,0,0,0,0,0,0,0,1,0,0,0,0,0,0,0,0,0,0,0,0,0,614
-34.77161,-7.254766,-17.84548,-106.5937,-48.80236,114.4126,0,0,0,0,0,0,0,0,0,0,0,1,0,0,0,0,0,0,0,0,0,0,0,0,0,615
-36.99709,-11.0992,-16.9022,-105.9236,-48.92066,113.1744,0,0,0,0,0,0,0,0,0,0,0,1,0,0,0,0,0,0,0,0,0,0,0,0,0,616
-39.70491,-15.36241,-16.08319,-104.8938,-49.74558,111.8598,0,0,0,0,0,0,0,0,0,0,0,1,0,0,0,0,0,0,0,0,0,0,0,0,0,617
-42.69899,-19.88341,-15.33056,-103.6553,-50.97457,110.4955,0,0,0,0,0,0,0,0,0,0,0,1,0,0,0,0,0,0,0,0,0,0,0,0,0,618
-45.49524,-24.06291,-14.6616,-102.4764,-52.19268,109.2412,0,0,0,0,0,0,0,0,0,0,0,1,0,0,0,0,0,0,0,0,0,0,0,0,0,619
-48.32904,-28.298,-13.98408,-101.2815,-53.42801,107.9702,0,0,0,0,0,0,0,0,0,0,0,1,0,0,0,0,0,0,0,0,0,0,0,0,0,620
-50.76814,-31.94321,-13.40092,-100.253,-54.49128,106.8763,0,0,0,0,0,0,0,0,0,0,0,1,0,0,0,0,0,0,0,0,0,0,0,0,0,621
-52.6862,-34.80974,-12.94233,-99.4442,-55.32741,106.0161,0,0,0,0,0,0,0,0,0,0,0,1,0,0,0,0,0,0,0,0,0,0,0,0,0,622
-53.93185,-36.67135,-12.64451,-98.91895,-55.87043,105.4574,0,0,0,0,0,0,0,0,0,0,0,1,0,0,0,0,0,0,0,0,0,0,0,0,0,623
-54.79237,-37.9574,-12.43877,-98.55608,-56.24555,105.0714,0,0,0,0,0,0,0,0,0,0,0,1,0,0,0,0,0,0,0,0,0,0,0,0,0,624
-55.28389,-38.69197,-12.32126,-98.34883,-56.45981,104.851,0,0,0,0,0,0,0,0,0,0,0,1,0,0,0,0,0,0,0,0,0,0,0,0,0,625
-55.44807,-38.93734,-12.282,-98.27959,-56.53138,104.7774,0,0,0,0,0,0,0,0,0,0,0,1,0,0,0,0,0,0,0,0,0,0,0,0,0,626
-55.49754,-39.01127,-12.27018,-98.25874,-56.55296,104.7552,0,0,0,0,0,0,0,0,0,0,0,0,0,0,0,0,0,0,0,0,0,0,0,0,0,627
-55.4985,-39.0127,-12.26995,-98.25834,-56.55337,104.7547,0,0,0,0,0,0,0,0,0,0,0,0,0,0,0,0,0,0,0,0,0,0,0,0,0,628
-55.4985,-39.0127,-12.26995,-98.25834,-56.55337,104.7547,0,0,0,0,0,0,0,0,0,0,0,0,0,0,0,0,0,0,0,0,0,0,0,0,0,629
-55.4985,-39.0127,-12.26995,-98.25834,-56.55337,104.7547,0,0,0,0,0,0,0,0,0,0,0,0,0,0,0,0,0,0,0,0,0,0,0,0,0,630
-55.4985,-39.0127,-12.26995,-98.25834,-56.55337,104.7547,0,0,0,0,0,0,0,0,0,0,0,0,0,0,0,0,0,0,0,0,0,0,0,0,0,631
-55.55485,-39.01068,-12.25583,-98.24454,-56.60173,104.7363,0,0,0,0,0,0,0,0,0,1,0,0,0,0,0,0,0,0,0,0,0,0,0,0,0,632
-55.89447,-38.99852,-12.17072,-98.16135,-56.89317,104.6249,0,0,0,0,0,0,0,0,0,1,0,0,0,0,0,0,0,0,0,0,0,0,0,0,0,633
-56.8599,-38.96395,-11.92878,-97.92491,-57.72165,104.3084,0,0,0,0,0,0,0,0,0,1,0,0,0,0,0,0,0,0,0,0,0,0,0,0,0,634
-58.69263,-38.89834,-11.46951,-97.47606,-59.29442,103.7075,0,0,0,0,0,0,0,0,0,1,0,0,0,0,0,0,0,0,0,0,0,0,0,0,0,635
-61.69108,-38.79098,-10.7181,-96.74171,-61.86753,102.7244,0,0,0,0,0,0,0,0,0,1,0,0,0,0,0,0,0,0,0,0,0,0,0,0,0,636
-66.51173,-38.61839,-9.510064,-95.5611,-66.00436,101.1439,0,0,0,0,0,0,0,0,0,1,0,0,0,0,0,0,0,0,0,0,0,0,0,0,0,637
-69.9791,-38.49424,-8.641154,-94.71191,-68.97987,100.0071,0,0,0,0,0,0,0,0,0,1,0,0,0,0,0,0,0,0,0,0,0,0,0,0,0,638
-75.56474,-38.29426,-7.241409,-93.34394,-73.77318,98.17574,0,0,0,0,0,0,0,0,0,1,0,0,0,0,0,0,0,0,0,0,0,0,0,0,0,639
-78.51839,-38.18851,-6.501232,-92.62056,-76.30786,97.20736,0,0,0,0,0,0,0,0,0,1,0,0,0,0,0,0,0,0,0,0,0,0,0,0,0,640
-81.28145,-38.08958,-5.80882,-91.94387,-78.67897,96.30145,0,0,0,0,0,0,0,0,0,1,0,0,0,0,0,0,0,0,0,0,0,0,0,0,0,641
-83.37203,-38.01473,-5.284926,-91.43185,-80.473,95.61602,0,0,0,0,0,0,0,0,0,1,0,0,0,0,0,0,0,0,0,0,0,0,0,0,0,642
-85.07384,-37.9538,-4.858455,-91.01508,-81.93342,95.05805,0,0,0,0,0,0,0,0,0,1,0,0,0,0,0,0,0,0,0,0,0,0,0,0,0,643
-86.2049,-37.91331,-4.575017,-90.73807,-82.90403,94.68722,0,0,0,0,0,0,0,0,0,1,0,0,0,0,0,0,0,0,0,0,0,0,0,0,0,644
-87.06821,-37.8824,-4.358674,-90.52664,-83.64488,94.40417,0,0,0,0,0,0,0,0,0,1,0,0,0,0,0,0,0,0,0,0,0,0,0,0,0,645
-87.28673,-37.87457,-4.303915,-90.47311,-83.83241,94.33253,0,0,0,0,0,0,0,0,0,1,0,0,0,0,0,0,0,0,0,0,0,0,0,0,0,646
-87.33866,-37.87271,-4.2909,-90.4604,-83.87698,94.3155,0,0,0,0,0,0,0,0,0,1,0,0,0,0,0,0,0,0,0,0,0,0,0,0,0,647
-87.34093,-37.86763,-4.293075,-90.46028,-83.87729,94.31754,0,0,0,0,0,0,0,0,0,1,0,0,0,0,0,0,0,0,0,0,0,0,0,0,0,648
-87.34442,-37.73894,-4.362792,-90.4708,-83.83843,94.38799,0,0,0,0,0,0,0,0,0,1,0,0,0,0,0,0,0,0,0,0,0,0,0,0,0,649
-87.35707,-37.26348,-4.618602,-90.51035,-83.69467,94.64656,0,0,0,0,0,0,0,0,0,1,0,0,0,0,0,0,0,0,0,0,0,0,0,0,0,650
-87.38568,-36.12613,-5.219406,-90.60921,-83.34895,95.25465,0,0,0,0,0,0,0,0,0,1,0,0,0,0,0,0,0,0,0,0,0,0,0,0,0,651
-87.45857,-32.72984,-6.919044,-90.93888,-82.30083,96.98205,0,0,0,0,0,0,0,0,0,1,0,0,0,0,0,0,0,0,0,0,0,0,0,0,0,652
-87.50868,-29.75395,-8.289967,-91.26698,-81.36349,98.38544,0,0,0,0,0,0,0,0,0,1,0,0,0,0,0,0,0,0,0,0,0,0,0,0,0,653
-87.55727,-25.88929,-9.901224,-91.74088,-80.12055,100.0515,0,0,0,0,0,0,0,0,0,1,0,0,0,0,0,0,0,0,0,0,0,0,0,0,0,654
-87.60395,-19.34342,-12.18018,-92.63988,-77.94936,102.4586,0,0,0,0,0,0,0,0,0,1,0,0,0,0,0,0,0,0,0,0,0,0,0,0,0,655
-87.61435,-14.90911,-13.39128,-93.29303,-76.43015,103.7829,0,0,0,0,0,0,0,0,0,1,0,0,0,0,0,0,0,0,0,0,0,0,0,0,0,656
-87.60175,-7.74869,-14.75924,-94.36277,-73.88963,105.3766,0,0,0,0,0,0,0,0,0,1,0,0,0,0,0,0,0,0,0,0,0,0,0,0,0,657
-87.57576,-2.841955,-15.26736,-95.06155,-72.08381,106.0654,0,0,0,0,0,0,0,0,0,1,0,0,0,0,0,0,0,0,0,0,0,0,0,0,0,658
-87.53859,2.033146,-15.42119,-95.68656,-70.23695,106.4122,0,0,0,0,0,0,0,0,0,1,0,0,0,0,0,0,0,0,0,0,0,0,0,0,0,659
-87.49309,6.815495,-15.23086,-96.19462,-68.37657,106.4146,0,0,0,0,0,0,0,0,0,1,0,0,0,0,0,0,0,0,0,0,0,0,0,0,0,660
-87.44632,11.09881,-14.77468,-96.52832,-66.67539,106.1231,0,0,0,0,0,0,0,0,0,1,0,0,0,0,0,0,0,0,0,0,0,0,0,0,0,661
-87.39331,15.54541,-14.0187,-96.71964,-64.88499,105.5166,0,0,0,0,0,0,0,0,0,1,0,0,0,0,0,0,0,0,0,0,0,0,0,0,0,662
-87.34065,19.72888,-13.04922,-96.72442,-63.1917,104.6529,0,0,0,0,0,0,0,0,0,1,0,0,0,0,0,0,0,0,0,0,0,0,0,0,0,663
-87.29108,23.57052,-11.9431,-96.55344,-61.64444,103.5998,0,0,0,0,0,0,0,0,0,1,0,0,0,0,0,0,0,0,0,0,0,0,0,0,0,664
-87.24669,26.99603,-10.78653,-96.24084,-60.28511,102.4431,0,0,0,0,0,0,0,0,0,1,0,0,0,0,0,0,0,0,0,0,0,0,0,0,0,665
-87.2112,29.76166,-9.738252,-95.86771,-59.21172,101.3546,0,0,0,0,0,0,0,0,0,1,0,0,0,0,0,0,0,0,0,0,0,0,0,0,0,666
-87.16696,33.28897,-8.25622,-95.22328,-57.88834,99.75985,0,0,0,0,0,0,0,0,0,1,0,0,0,0,0,0,0,0,0,0,0,0,0,0,0,667
-87.13818,35.659,-7.171106,-94.67844,-57.03693,98.55539,0,0,0,0,0,0,0,0,0,1,0,0,0,0,0,0,0,0,0,0,0,0,0,0,0,668
-87.12645,36.64831,-6.701262,-94.42615,-56.6925,98.02527,0,0,0,0,0,0,0,0,0,1,0,0,0,0,0,0,0,0,0,0,0,0,0,0,0,669
-87.12006,37.19147,-6.450606,-94.28896,-56.50692,97.74109,0,0,0,0,0,0,0,0,0,1,0,0,0,0,0,0,0,0,0,0,0,0,0,0,0,670
-87.11594,37.5387,-6.346537,-94.23746,-56.39209,97.62615,0,0,0,0,0,0,0,0,0,1,0,0,0,0,0,0,0,0,0,0,0,0,0,0,0,671
-87.1156,37.56049,-6.421468,-94.28855,-56.38887,97.71666,0,0,0,0,0,0,0,0,0,1,0,0,0,0,0,0,0,0,0,0,0,0,0,0,0,672
-87.1156,37.54918,-6.566434,-94.38461,-56.39982,97.89022,0,0,0,0,0,0,0,0,0,1,0,0,0,0,0,0,0,0,0,0,0,0,0,0,0,673
-87.1156,37.5383,-6.712696,-94.48148,-56.41112,98.06528,0,0,0,0,0,0,0,0,0,1,0,0,0,0,0,0,0,0,0,0,0,0,0,0,0,674
-87.1156,37.52423,-6.913704,-94.61452,-56.42707,98.3058,0,0,0,0,0,0,0,0,0,1,0,0,0,0,0,0,0,0,0,0,0,0,0,0,0,675
-87.1156,37.50344,-7.24358,-94.8326,-56.45422,98.70032,0,0,0,0,0,0,0,0,0,1,0,0,0,0,0,0,0,0,0,0,0,0,0,0,0,676
-87.1156,37.48463,-7.590427,-95.06158,-56.48413,99.11485,0,0,0,0,0,0,0,0,0,1,0,0,0,0,0,0,0,0,0,0,0,0,0,0,0,677
-87.1156,37.47438,-7.809388,-95.20597,-56.50373,99.3764,0,0,0,0,0,0,0,0,0,1,0,0,0,0,0,0,0,0,0,0,0,0,0,0,0,678
-87.1156,37.46011,-8.172806,-95.44528,-56.53746,99.81022,0,0,0,0,0,0,0,0,0,1,0,0,0,0,0,0,0,0,0,0,0,0,0,0,0,679
-87.1156,37.44979,-8.516354,-95.67113,-56.57074,100.22,0,0,0,0,0,0,0,0,0,1,0,0,0,0,0,0,0,0,0,0,0,0,0,0,0,680
-87.1156,37.44257,-8.85827,-95.89555,-56.60519,100.6275,0,0,0,0,0,0,0,0,0,1,0,0,0,0,0,0,0,0,0,0,0,0,0,0,0,681
-87.1156,37.43939,-9.091291,-96.04826,-56.62943,100.9051,0,0,0,0,0,0,0,0,0,1,0,0,0,0,0,0,0,0,0,0,0,0,0,0,0,682
-87.1156,37.43763,-9.323579,-96.20031,-56.65422,101.1816,0,0,0,0,0,0,0,0,0,1,0,0,0,0,0,0,0,0,0,0,0,0,0,0,0,683
-87.1156,37.43726,-9.555144,-96.35169,-56.67953,101.4571,0,0,0,0,0,0,0,0,0,1,0,0,0,0,0,0,0,0,0,0,0,0,0,0,0,684
-87.1156,37.43817,-9.768258,-96.49085,-56.70337,101.7105,0,0,0,0,0,0,0,0,0,1,0,0,0,0,0,0,0,0,0,0,0,0,0,0,0,685
-87.1156,37.442,-10.10448,-96.71006,-56.74201,102.11,0,0,0,0,0,0,0,0,0,1,0,0,0,0,0,0,0,0,0,0,0,0,0,0,0,686
-87.1156,37.4463,-10.33367,-96.85925,-56.76909,102.3821,0,0,0,0,0,0,0,0,0,1,0,0,0,0,0,0,0,0,0,0,0,0,0,0,0,687
-87.1156,37.45194,-10.56218,-97.00777,-56.79667,102.6533,0,0,0,0,0,0,0,0,0,1,0,0,0,0,0,0,0,0,0,0,0,0,0,0,0,688
-87.1156,37.45892,-10.7899,-97.15559,-56.82475,102.9233,0,0,0,0,0,0,0,0,0,1,0,0,0,0,0,0,0,0,0,0,0,0,0,0,0,689
-87.1156,37.46705,-11.0128,-97.30008,-56.85279,103.1875,0,0,0,0,0,0,0,0,0,1,0,0,0,0,0,0,0,0,0,0,0,0,0,0,0,690
-87.1156,37.4752,-11.20699,-97.4258,-56.87768,103.4174,0,0,0,0,0,0,0,0,0,1,0,0,0,0,0,0,0,0,0,0,0,0,0,0,0,691
-87.1156,37.4841,-11.39681,-97.54852,-56.90241,103.6421,0,0,0,0,0,0,0,0,0,1,0,0,0,0,0,0,0,0,0,0,0,0,0,0,0,692
-87.1156,37.4957,-11.61847,-97.69166,-56.9318,103.9043,0,0,0,0,0,0,0,0,0,1,0,0,0,0,0,0,0,0,0,0,0,0,0,0,0,693
-87.1156,37.50113,-11.71468,-97.75372,-56.94474,104.0181,0,0,0,0,0,0,0,0,0,1,0,0,0,0,0,0,0,0,0,0,0,0,0,0,0,694
-87.1156,37.50509,-11.78216,-97.79723,-56.95387,104.0979,0,0,0,0,0,0,0,0,0,1,0,0,0,0,0,0,0,0,0,0,0,0,0,0,0,695
-87.1156,37.50735,-11.81985,-97.8215,-56.95898,104.1424,0,0,0,0,0,0,0,0,0,1,0,0,0,0,0,0,0,0,0,0,0,0,0,0,0,696
-87.1156,37.50831,-11.83572,-97.83174,-56.96115,104.1612,0,0,0,0,0,0,0,0,0,1,0,0,0,0,0,0,0,0,0,0,0,0,0,0,0,697
-87.1156,37.50862,-11.84073,-97.83496,-56.96183,104.1671,0,0,0,0,0,0,0,0,0,1,0,0,0,0,0,0,0,0,0,0,0,0,0,0,0,698
-87.1156,37.50862,-11.84073,-97.83496,-56.96183,104.1671,0,1,0,0,0,0,0,0,0,1,0,0,0,0,0,0,0,0,0,0,0,0,0,0,0,699
-87.1156,37.50862,-11.84073,-97.83496,-56.96183,104.1671,0,1,0,0,0,0,0,0,0,1,0,0,0,0,0,0,0,0,0,0,0,0,0,0,0,700
-87.1156,37.50862,-11.84073,-97.83496,-56.96183,104.1671,0,1,0,0,0,0,0,0,0,1,0,0,0,0,0,0,0,0,0,0,0,0,0,0,0,701
-87.1156,37.50862,-11.84073,-97.83496,-56.96183,104.1671,0,1,0,0,0,0,0,0,0,1,0,0,0,0,0,0,0,0,0,0,0,0,0,0,0,702
-87.1156,37.50862,-11.84073,-97.83496,-56.96183,104.1671,0,1,0,0,0,0,0,0,0,1,0,0,0,0,0,0,0,0,0,0,0,0,0,0,0,703
-87.1156,37.50862,-11.84073,-97.83496,-56.96183,104.1671,0,1,0,0,0,0,0,0,0,1,0,0,0,0,0,0,0,0,0,0,0,0,0,0,0,704
-87.1156,37.50862,-11.84073,-97.83496,-56.96183,104.1671,0,1,0,0,0,0,0,0,0,1,0,0,0,0,0,0,0,0,0,0,0,0,0,0,0,705
-87.1156,37.50862,-11.84073,-97.83496,-56.96183,104.1671,0,1,0,0,0,0,0,0,0,1,0,0,0,0,0,0,0,0,0,0,0,0,0,0,0,706
-87.11558,37.50862,-11.84073,-97.83497,-56.96181,104.1671,0,0,0,0,0,0,0,0,0,1,0,0,0,0,0,0,0,0,0,0,0,0,0,0,0,707
-87.07359,37.50915,-11.84611,-97.85055,-56.92179,104.1801,0,0,0,0,0,0,0,0,0,1,0,0,0,0,0,0,0,0,0,0,0,0,0,0,0,708
-86.89822,37.51218,-11.86817,-97.91553,-56.75468,104.2339,0,0,0,0,0,0,0,0,0,1,0,0,0,0,0,0,0,0,0,0,0,0,0,0,0,709
-86.74453,37.51587,-11.88696,-97.97245,-56.60819,104.2808,0,0,0,0,0,0,0,0,0,1,0,0,0,0,0,0,0,0,0,0,0,0,0,0,0,710
-86.74384,37.51589,-11.88704,-97.97271,-56.60754,104.281,0,0,0,0,0,0,0,0,0,1,0,0,0,0,0,0,0,0,0,0,0,0,0,0,0,711
-86.74384,37.51589,-11.88704,-97.97271,-56.60754,104.281,0,0,0,0,0,0,0,0,0,1,0,0,0,0,0,0,0,0,0,0,0,0,0,0,0,712
-86.74384,37.51589,-11.88704,-97.97271,-56.60754,104.281,0,0,0,0,0,0,0,0,0,1,0,0,0,0,0,0,0,0,0,0,0,0,0,0,0,713
-86.74384,37.51589,-11.88704,-97.97271,-56.60754,104.281,0,0,0,0,0,0,0,0,0,1,0,0,0,0,0,0,0,0,0,0,0,0,0,0,0,714
-86.74384,37.51589,-11.88704,-97.97271,-56.60754,104.281,0,0,0,0,0,0,0,0,0,1,0,0,0,0,0,0,0,0,0,0,0,0,0,0,0,715
-86.74384,37.51589,-11.88704,-97.97271,-56.60754,104.281,0,0,0,0,0,0,0,0,0,1,0,0,0,0,0,0,0,0,0,0,0,0,0,0,0,716
-86.74384,37.51589,-11.88704,-97.97271,-56.60754,104.281,0,0,0,0,0,0,0,0,0,1,0,0,0,0,0,0,0,0,0,0,0,0,0,0,0,717
-86.74384,37.51589,-11.88704,-97.97271,-56.60754,104.281,0,0,0,0,0,0,0,0,0,1,0,0,0,0,0,0,0,0,0,0,0,0,0,0,0,718
-86.74583,37.51406,-11.85793,-97.95312,-56.60543,104.2461,0,0,0,0,0,0,0,0,0,1,0,0,0,0,0,0,0,0,0,0,0,0,0,0,0,719
-86.80313,37.47044,-11.01478,-97.38556,-56.54861,103.2361,0,0,0,0,0,0,0,0,0,1,0,0,0,0,0,0,0,0,0,0,0,0,0,0,0,720
-86.93285,37.44102,-9.071613,-96.07603,-56.4478,100.9041,0,0,0,0,0,0,0,0,0,1,0,0,0,0,0,0,0,0,0,0,0,0,0,0,0,721
-87.02937,37.4817,-7.593721,-95.07962,-56.40023,99.12757,0,0,0,0,0,0,0,0,0,1,0,0,0,0,0,0,0,0,0,0,0,0,0,0,0,722
-87.10737,37.31168,-6.540839,-94.35691,-56.46244,97.85365,0,0,0,0,0,0,0,0,0,1,0,0,0,0,0,0,0,0,0,0,0,0,0,0,0,723
-87.12501,36.7461,-6.653908,-94.40018,-56.65849,97.97157,0,0,0,0,0,0,0,0,0,1,0,0,0,0,0,0,0,0,0,0,0,0,0,0,0,724
-87.13742,35.72234,-7.141023,-94.66254,-57.01455,98.52158,0,0,0,0,0,0,0,0,0,1,0,0,0,0,0,0,0,0,0,0,0,0,0,0,0,725
-87.16563,33.39567,-8.208889,-95.20075,-57.84894,99.70796,0,0,0,0,0,0,0,0,0,1,0,0,0,0,0,0,0,0,0,0,0,0,0,0,0,726
-87.18945,31.47688,-9.037671,-95.57874,-58.56016,100.6084,0,0,0,0,0,0,0,0,0,1,0,0,0,0,0,0,0,0,0,0,0,0,0,0,0,727
-87.22037,29.03585,-10.02313,-95.97675,-59.48971,101.654,0,0,0,0,0,0,0,0,0,1,0,0,0,0,0,0,0,0,0,0,0,0,0,0,0,728
-87.25658,26.21994,-11.06243,-96.3261,-60.58898,102.7237,0,0,0,0,0,0,0,0,0,1,0,0,0,0,0,0,0,0,0,0,0,0,0,0,0,729
-87.29431,23.30618,-12.02572,-96.57161,-61.7481,103.6807,0,0,0,0,0,0,0,0,0,1,0,0,0,0,0,0,0,0,0,0,0,0,0,0,0,730
-87.36114,18.1015,-13.45576,-96.74544,-63.84756,105.0237,0,0,0,0,0,0,0,0,0,1,0,0,0,0,0,0,0,0,0,0,0,0,0,0,0,731
-87.41032,14.13325,-14.28968,-96.67881,-65.45268,105.7438,0,0,0,0,0,0,0,0,0,1,0,0,0,0,0,0,0,0,0,0,0,0,0,0,0,732
-87.45994,9.879191,-14.93189,-96.44742,-67.16029,106.2351,0,0,0,0,0,0,0,0,0,1,0,0,0,0,0,0,0,0,0,0,0,0,0,0,0,733
-87.50735,5.38971,-15.3229,-96.0567,-68.93434,106.4496,0,0,0,0,0,0,0,0,0,1,0,0,0,0,0,0,0,0,0,0,0,0,0,0,0,734
-87.54646,1.096755,-15.41885,-95.5736,-70.59524,106.3721,0,0,0,0,0,0,0,0,0,1,0,0,0,0,0,0,0,0,0,0,0,0,0,0,0,735
-87.59467,-6.132977,-14.96542,-94.59757,-73.30243,105.6401,0,0,0,0,0,0,0,0,0,1,0,0,0,0,0,0,0,0,0,0,0,0,0,0,0,736
-87.61026,-10.36167,-14.34532,-93.97408,-74.83179,104.8743,0,0,0,0,0,0,0,0,0,1,0,0,0,0,0,0,0,0,0,0,0,0,0,0,0,737
-87.61459,-14.74328,-13.43115,-93.31686,-76.37519,103.8272,0,0,0,0,0,0,0,0,0,1,0,0,0,0,0,0,0,0,0,0,0,0,0,0,0,738
-87.60604,-18.8398,-12.33136,-92.71188,-77.78148,102.6214,0,0,0,0,0,0,0,0,0,1,0,0,0,0,0,0,0,0,0,0,0,0,0,0,0,739
-87.58797,-22.3059,-11.22005,-92.21977,-78.94469,101.4346,0,0,0,0,0,0,0,0,0,1,0,0,0,0,0,0,0,0,0,0,0,0,0,0,0,740
-87.55933,-25.69367,-9.977515,-91.7655,-80.05869,100.1308,0,0,0,0,0,0,0,0,0,1,0,0,0,0,0,0,0,0,0,0,0,0,0,0,0,741
-87.52396,-28.67963,-8.757134,-91.39311,-81.02209,98.86623,0,0,0,0,0,0,0,0,0,1,0,0,0,0,0,0,0,0,0,0,0,0,0,0,0,742
-87.46687,-32.28073,-7.132991,-90.98575,-82.16103,97.20026,0,0,0,0,0,0,0,0,0,1,0,0,0,0,0,0,0,0,0,0,0,0,0,0,0,743
-87.43194,-34.06761,-6.266491,-90.8027,-82.71673,96.31731,0,0,0,0,0,0,0,0,0,1,0,0,0,0,0,0,0,0,0,0,0,0,0,0,0,744
-87.39896,-35.56327,-5.51081,-90.65998,-83.17695,95.5499,0,0,0,0,0,0,0,0,0,1,0,0,0,0,0,0,0,0,0,0,0,0,0,0,0,745
-87.37366,-36.61209,-4.96453,-90.5659,-83.49696,94.99642,0,0,0,0,0,0,0,0,0,1,0,0,0,0,0,0,0,0,0,0,0,0,0,0,0,746
-87.35103,-37.48956,-4.497209,-90.49106,-83.76301,94.52371,0,0,0,0,0,0,0,0,0,1,0,0,0,0,0,0,0,0,0,0,0,0,0,0,0,747
-87.34379,-37.75942,-4.351614,-90.46878,-83.84454,94.37657,0,0,0,0,0,0,0,0,0,1,0,0,0,0,0,0,0,0,0,0,0,0,0,0,0,748
-87.3411,-37.85859,-4.297882,-90.46068,-83.87447,94.32228,0,0,0,0,0,0,0,0,0,1,0,0,0,0,0,0,0,0,0,0,0,0,0,0,0,749
-87.34071,-37.8726,-4.290287,-90.45954,-83.8787,94.3146,0,0,0,0,0,0,0,0,0,1,0,0,0,0,0,0,0,0,0,0,0,0,0,0,0,750
-87.34071,-37.8726,-4.290287,-90.45954,-83.8787,94.3146,0,0,0,0,0,0,0,0,0,0,0,0,0,0,0,0,0,0,0,0,0,0,0,0,0,751
-87.34071,-37.8726,-4.290287,-90.45954,-83.8787,94.3146,0,0,0,0,0,0,0,0,0,0,0,0,0,0,0,0,0,0,0,0,0,0,0,0,0,752
-87.34071,-37.8726,-4.290287,-90.45954,-83.8787,94.3146,0,0,0,0,0,0,0,0,0,0,0,0,0,0,0,0,0,0,0,0,0,0,0,0,0,753
-87.34071,-37.8726,-4.290287,-90.45954,-83.8787,94.3146,0,0,0,0,0,0,0,0,0,0,0,0,0,0,0,0,0,0,0,0,0,0,0,0,0,754
-87.34071,-37.8726,-4.290287,-90.45954,-83.8787,94.3146,0,0,0,0,0,0,0,0,0,0,0,0,0,0,0,0,0,0,0,0,0,0,0,0,0,755
-87.34071,-37.8726,-4.290287,-90.45954,-83.8787,94.3146,0,0,0,0,0,0,0,0,0,0,0,0,0,0,0,0,0,0,0,0,0,0,0,0,0,756
-87.34071,-37.8726,-4.290287,-90.45954,-83.8787,94.3146,0,0,0,0,0,0,0,0,0,0,0,0,0,0,0,0,0,0,0,0,0,0,0,0,0,757
-87.34071,-37.8726,-4.290287,-90.45954,-83.8787,94.3146,0,0,0,0,0,0,0,0,0,0,0,0,0,0,0,0,0,0,0,0,0,0,0,0,0,758
-87.34071,-37.8726,-4.290287,-90.45954,-83.8787,94.3146,0,0,0,0,0,0,0,0,0,0,0,0,0,0,0,0,0,0,0,0,0,0,0,0,0,759
-87.34071,-37.8726,-4.290287,-90.45954,-83.8787,94.3146,0,0,0,0,0,0,0,0,0,0,0,0,0,0,0,0,0,0,0,0,0,0,0,0,0,760
-87.34071,-37.8726,-4.290287,-90.45954,-83.8787,94.3146,0,0,0,0,0,0,0,0,0,0,0,0,0,0,0,0,0,0,0,0,0,0,0,0,0,761
-87.34071,-37.8726,-4.290287,-90.45954,-83.8787,94.3146,0,0,0,0,0,0,0,0,0,0,0,0,0,0,0,0,0,0,0,0,0,0,0,0,0,762
-87.34071,-37.8726,-4.290287,-90.45954,-83.8787,94.3146,0,0,0,0,0,0,0,0,0,0,0,0,0,0,0,0,0,0,0,0,0,0,0,0,0,763
-87.34071,-37.8726,-4.290287,-90.45954,-83.8787,94.3146,0,0,0,0,0,0,0,0,0,0,0,0,0,0,0,0,0,0,0,0,0,0,0,0,0,764
-87.34071,-37.8726,-4.290287,-90.45954,-83.8787,94.3146,0,0,0,0,0,0,0,0,0,0,0,0,0,0,0,0,0,0,0,0,0,0,0,0,0,765
-87.34071,-37.8726,-4.290287,-90.45954,-83.8787,94.3146,0,0,0,0,0,0,0,0,0,0,0,0,0,0,0,0,0,0,0,0,0,0,0,0,0,766
-87.31381,-37.86358,-4.287857,-90.42142,-83.88303,94.28436,0,0,0,0,0,0,0,0,0,0,0,0,0,0,0,0,0,0,0,0,0,0,0,0,0,767
-86.92296,-37.73244,-4.251512,-89.86444,-83.94425,93.8434,0,0,0,0,0,0,0,0,0,0,0,0,0,0,0,0,0,0,0,0,0,0,0,0,0,768
-85.49717,-37.25407,-4.118927,-87.83267,-84.16762,92.23484,0,0,0,0,0,0,0,0,0,0,0,0,0,0,0,0,0,0,0,0,0,0,0,0,0,769
-82.50695,-36.2508,-3.840867,-83.57156,-84.63605,88.86133,0,0,0,0,0,0,0,0,0,0,0,0,0,0,0,0,0,0,0,0,0,0,0,0,0,770
-77.87589,-34.697,-3.410222,-76.97221,-85.36154,83.63663,0,0,0,0,0,0,0,0,0,0,0,0,0,0,0,0,0,0,0,0,0,0,0,0,0,771
-72.36783,-32.84895,-2.898024,-69.12312,-86.22441,77.42254,0,0,0,0,0,0,0,0,0,0,0,0,0,0,0,0,0,0,0,0,0,0,0,0,0,772
-65.57633,-30.57029,-2.26648,-59.4451,-87.28836,69.76048,0,0,0,0,0,0,0,0,0,0,0,0,0,0,0,0,0,0,0,0,0,0,0,0,0,773
-58.46305,-28.18366,-1.605013,-49.30854,-88.4027,61.73536,0,0,0,0,0,0,0,0,0,0,0,0,0,0,0,0,0,0,0,0,0,0,0,0,0,774
-52.00536,-26.017,-1.004511,-40.10619,-89.41434,54.44989,0,0,0,0,0,0,0,0,0,0,0,0,0,0,0,0,0,0,0,0,0,0,0,0,0,775
-45.4834,-23.82877,-0.398032,-30.81229,-90.43605,47.09192,0,0,0,0,0,0,0,0,0,0,0,0,0,0,0,0,0,0,0,0,0,0,0,0,0,776
-37.25743,-21.06882,0.3669046,-19.09012,-91.72471,37.81151,0,0,0,0,0,0,0,0,0,0,0,0,0,0,0,0,0,0,0,0,0,0,0,0,0,777
-32.7435,-19.55433,0.7866561,-12.6577,-92.43185,32.71897,0,0,0,0,0,0,0,0,0,0,0,0,0,0,0,0,0,0,0,0,0,0,0,0,0,778
-29.23904,-18.37852,1.112538,-7.663758,-92.98083,28.76528,0,0,0,0,0,0,0,0,0,0,0,0,0,0,0,0,0,0,0,0,0,0,0,0,0,779
-26.87728,-17.58611,1.33216,-4.29821,-93.35083,26.10078,0,0,0,0,0,0,0,0,0,0,0,0,0,0,0,0,0,0,0,0,0,0,0,0,0,780
-25.23443,-17.0349,1.484929,-1.957119,-93.60818,24.24734,0,0,0,0,0,0,0,0,0,0,0,0,0,0,0,0,0,0,0,0,0,0,0,0,0,781
-24.40585,-16.7569,1.561978,-0.7763745,-93.738,23.31255,0,0,0,0,0,0,0,0,0,0,0,0,0,0,0,0,0,0,0,0,0,0,0,0,0,782
-24.02615,-16.62951,1.597286,-0.2353018,-93.79747,22.88419,0,0,0,0,0,0,0,0,0,0,0,0,0,0,0,0,0,0,0,0,0,0,0,0,0,783
-23.94806,-16.6033,1.604549,-0.1240174,-93.80972,22.79608,0,1,0,0,0,0,0,0,0,0,0,0,0,0,0,0,0,0,0,0,0,0,0,0,0,784
-23.94806,-16.6033,1.604549,-0.1240174,-93.80972,22.79608,0,1,0,0,0,0,0,0,0,0,0,0,0,0,0,0,0,0,0,0,0,0,0,0,0,785
-23.94806,-16.6033,1.604549,-0.1240174,-93.80972,22.79608,0,1,0,0,0,0,0,0,0,0,0,0,0,0,0,0,0,0,0,0,0,0,0,0,0,786
-23.94806,-16.6033,1.604549,-0.1240174,-93.80972,22.79608,0,1,0,0,0,0,0,0,0,0,0,0,0,0,0,0,0,0,0,0,0,0,0,0,0,787
-23.94806,-16.6033,1.604549,-0.1240174,-93.80972,22.79608,0,1,0,0,0,0,0,0,0,0,0,0,0,0,0,0,0,0,0,0,0,0,0,0,0,788
-23.94806,-16.6033,1.604549,-0.1240174,-93.80972,22.79608,0,1,0,0,0,0,0,0,0,0,0,0,0,0,0,0,0,0,0,0,0,0,0,0,0,789
-23.94806,-16.6033,1.604549,-0.1240174,-93.80972,22.79608,0,1,0,0,0,0,0,0,0,0,0,0,0,0,0,0,0,0,0,0,0,0,0,0,0,790
-23.94806,-16.6033,1.604549,-0.1240174,-93.80972,22.79608,0,1,0,0,0,0,0,0,0,0,0,0,0,0,0,0,0,0,0,0,0,0,0,0,0,791
-23.94806,-16.6033,1.604549,-0.1240174,-93.80972,22.79608,0,1,0,0,0,0,0,0,0,0,0,0,0,0,0,0,0,0,0,0,0,0,0,0,0,792
-23.94806,-16.6033,1.604549,-0.1240174,-93.80972,22.79608,0,0,0,0,0,0,0,0,0,0,0,1,0,0,0,0,0,0,0,0,0,0,0,0,0,793
-23.94806,-16.6033,1.604549,-0.1240174,-93.80972,22.79608,0,0,0,0,0,0,0,0,0,0,0,1,0,0,0,0,0,0,0,0,0,0,0,0,0,794
-23.94806,-16.6033,1.604549,-0.1240174,-93.80972,22.79608,0,0,0,0,0,0,0,0,0,0,0,1,0,0,0,0,0,0,0,0,0,0,0,0,0,795
-23.94806,-16.6033,1.604549,-0.1240174,-93.80972,22.79608,0,0,0,0,0,0,0,0,0,0,0,1,0,0,0,0,0,0,0,0,0,0,0,0,0,796
-23.94806,-16.6033,1.604549,-0.1240174,-93.80972,22.79608,0,0,0,0,0,0,0,0,0,0,0,1,0,0,0,0,0,0,0,0,0,0,0,0,0,797
-23.94806,-16.6033,1.604549,-0.1240174,-93.80972,22.79608,0,0,0,0,0,0,0,0,0,0,0,1,0,0,0,0,0,0,0,0,0,0,0,0,0,798
-23.94806,-16.6033,1.604549,-0.1240174,-93.80972,22.79608,0,0,0,0,0,0,0,0,0,0,0,1,0,0,0,0,0,0,0,0,0,0,0,0,0,799
-23.94806,-16.6033,1.604549,-0.1240174,-93.80972,22.79608,0,0,0,0,0,0,0,0,0,0,0,1,0,0,0,0,0,0,0,0,0,0,0,0,0,800
-23.94369,-16.59624,1.600793,-0.1241472,-93.80521,22.79281,0,0,0,0,0,0,0,0,0,0,0,1,0,0,0,0,0,0,0,0,0,0,0,0,0,801
-23.83176,-16.41434,1.504298,-0.1273578,-93.68984,22.70914,0,0,0,0,0,0,0,0,0,0,0,1,0,0,0,0,0,0,0,0,0,0,0,0,0,802
-23.50852,-15.88023,1.224494,-0.1361767,-93.35478,22.4686,0,0,0,0,0,0,0,0,0,0,0,1,0,0,0,0,0,0,0,0,0,0,0,0,0,803
-22.81259,-14.68417,0.6167553,-0.1527761,-92.62436,21.9566,0,0,0,0,0,0,0,0,0,0,0,1,0,0,0,0,0,0,0,0,0,0,0,0,0,804
-21.76433,-12.75505,-0.3095462,-0.1712677,-91.5032,21.20142,0,0,0,0,0,0,0,0,0,0,0,1,0,0,0,0,0,0,0,0,0,0,0,0,0,805
-20.64604,-10.51041,-1.305418,-0.1815894,-90.28494,20.41866,0,0,0,0,0,0,0,0,0,0,0,1,0,0,0,0,0,0,0,0,0,0,0,0,0,806
-19.42176,-7.803284,-2.391968,-0.180476,-88.93596,19.5915,0,0,0,0,0,0,0,0,0,0,0,1,0,0,0,0,0,0,0,0,0,0,0,0,0,807
-18.28251,-5.016309,-3.382354,-0.1663015,-87.68147,18.85272,0,0,0,0,0,0,0,0,0,0,0,1,0,0,0,0,0,0,0,0,0,0,0,0,0,808
-17.27873,-2.315357,-4.219977,-0.1419284,-86.59334,18.22924,0,0,0,0,0,0,0,0,0,0,0,1,0,0,0,0,0,0,0,0,0,0,0,0,0,809
-16.14982,1.039396,-5.094933,-0.09939839,-85.41427,17.56255,0,0,0,0,0,0,0,0,0,0,0,1,0,0,0,0,0,0,0,0,0,0,0,0,0,810
-15.52649,3.055628,-5.533325,-0.0682352,-84.79671,17.21182,0,0,0,0,0,0,0,0,0,0,0,1,0,0,0,0,0,0,0,0,0,0,0,0,0,811
-15.06329,4.638412,-5.831689,-0.04118431,-84.35954,16.95994,0,0,0,0,0,0,0,0,0,0,0,1,0,0,0,0,0,0,0,0,0,0,0,0,0,812
-14.75761,5.725528,-6.013371,-0.02140846,-84.08346,16.79807,0,0,0,0,0,0,0,0,0,0,0,1,0,0,0,0,0,0,0,0,0,0,0,0,0,813
-14.52695,6.56953,-6.141392,-0.005423842,-83.88267,16.6783,0,0,0,0,0,0,0,0,0,0,0,1,0,0,0,0,0,0,0,0,0,0,0,0,0,814
-14.46756,6.790289,-6.173013,-0.001161276,-83.83208,16.64779,0,0,0,0,0,0,0,0,0,0,0,1,0,0,0,0,0,0,0,0,0,0,0,0,0,815
-14.45248,6.846553,-6.180933,-6.83E-05,-83.81934,16.64007,0,0,0,0,0,0,0,0,0,0,0,1,0,0,0,0,0,0,0,0,0,0,0,0,0,816
-14.45165,6.849671,-6.181376,-6.83E-06,-83.81863,16.63965,0,0,0,0,0,0,0,0,0,0,0,1,0,0,0,0,0,0,0,0,0,0,0,0,0,817
-14.45165,6.849671,-6.181376,-6.83E-06,-83.81863,16.63965,0,0,0,0,0,0,0,0,0,0,0,1,0,0,0,0,0,0,0,0,0,0,0,0,0,818
-14.45165,6.849671,-6.181376,-6.83E-06,-83.81863,16.63965,0,0,0,0,0,0,0,0,0,0,0,1,0,0,0,0,0,0,0,0,0,0,0,0,0,819
-14.45165,6.849671,-6.181376,-6.83E-06,-83.81863,16.63965,0,0,0,0,0,0,0,0,0,0,0,1,0,0,0,0,0,0,0,0,0,0,0,0,0,820
-14.45165,6.849671,-6.181376,-6.83E-06,-83.81863,16.63965,0,0,0,0,0,0,0,0,0,0,0,1,0,0,0,0,0,0,0,0,0,0,0,0,0,821
-14.45165,6.849671,-6.181376,-6.83E-06,-83.81863,16.63965,0,0,0,0,0,0,0,0,0,0,0,1,0,0,0,0,0,0,0,0,0,0,0,0,0,822
-14.45165,6.849671,-6.181376,-6.83E-06,-83.81863,16.63965,0,0,0,0,0,0,0,0,0,0,0,1,0,0,0,0,0,0,0,0,0,0,0,0,0,823
-14.45165,6.849671,-6.181376,-6.83E-06,-83.81863,16.63965,0,0,0,0,0,0,0,0,0,0,0,1,0,0,0,0,0,0,0,0,0,0,0,0,0,824
-14.45165,6.849671,-6.181376,-6.83E-06,-83.81863,16.63965,0,0,0,0,0,0,0,0,0,0,0,1,0,0,0,0,0,0,0,0,0,0,0,0,0,825
-14.45165,6.849671,-6.181376,-6.83E-06,-83.81863,16.63965,0,0,0,0,0,0,0,0,0,0,0,1,0,0,0,0,0,0,0,0,0,0,0,0,0,826
-14.45165,6.849671,-6.181376,-6.83E-06,-83.81863,16.63965,0,0,0,0,0,0,0,0,0,0,0,1,0,0,0,0,0,0,0,0,0,0,0,0,0,827
-14.45165,6.849671,-6.181376,-6.83E-06,-83.81863,16.63965,0,0,0,0,0,0,0,0,0,0,0,1,0,0,0,0,0,0,0,0,0,0,0,0,0,828
-14.45165,6.849671,-6.181376,-6.83E-06,-83.81863,16.63965,0,0,0,0,0,0,0,0,0,0,0,1,0,0,0,0,0,0,0,0,0,0,0,0,0,829
-14.45165,6.849671,-6.181376,-6.83E-06,-83.81863,16.63965,0,0,0,0,0,0,0,0,0,0,0,1,0,0,0,0,0,0,0,0,0,0,0,0,0,830
-14.45165,6.849671,-6.181376,-6.83E-06,-83.81863,16.63965,0,0,0,0,0,0,0,0,0,0,0,1,0,0,0,0,0,0,0,0,0,0,0,0,0,831
-14.45165,6.849671,-6.181376,-6.83E-06,-83.81863,16.63965,0,0,0,0,0,0,0,0,0,0,0,1,0,0,0,0,0,0,0,0,0,0,0,0,0,832
-14.45165,6.849671,-6.181376,-6.83E-06,-83.81863,16.63965,0,0,0,0,0,0,0,0,0,0,0,1,0,0,0,0,0,0,0,0,0,0,0,0,0,833
-14.45165,6.849671,-6.181376,-6.83E-06,-83.81863,16.63965,0,0,0,0,0,0,0,0,0,0,0,1,0,0,0,0,0,0,0,0,0,0,0,0,0,834
-14.45165,6.849671,-6.181376,-6.83E-06,-83.81863,16.63965,0,0,0,0,0,0,0,0,0,0,0,1,0,0,0,0,0,0,0,0,0,0,0,0,0,835
-14.45165,6.849671,-6.181376,-6.83E-06,-83.81863,16.63965,0,0,0,0,0,0,0,0,0,0,0,1,0,0,0,0,0,0,0,0,0,0,0,0,0,836
-14.45165,6.849671,-6.181376,-6.83E-06,-83.81863,16.63965,0,0,0,0,0,0,0,0,0,0,0,1,0,0,0,0,0,0,0,0,0,0,0,0,0,837
-14.45165,6.849671,-6.181376,-6.83E-06,-83.81863,16.63965,0,0,0,0,0,0,0,0,0,0,0,1,0,0,0,0,0,0,0,0,0,0,0,0,0,838
-14.45165,6.849671,-6.181376,-6.83E-06,-83.81863,16.63965,0,0,0,0,0,0,0,0,0,0,0,1,0,0,0,0,0,0,0,0,0,0,0,0,0,839
-14.45165,6.849671,-6.181376,-6.83E-06,-83.81863,16.63965,0,0,0,0,0,0,0,0,0,0,0,1,0,0,0,0,0,0,0,0,0,0,0,0,0,840
-14.45165,6.849671,-6.181376,-6.83E-06,-83.81863,16.63965,0,0,0,0,0,0,0,0,0,0,0,1,0,0,0,0,0,0,0,0,0,0,0,0,0,841
-14.45165,6.849671,-6.181376,-6.83E-06,-83.81863,16.63965,0,0,0,0,0,0,0,0,0,0,0,1,0,0,0,0,0,0,0,0,0,0,0,0,0,842
-14.45165,6.849671,-6.181376,-6.83E-06,-83.81863,16.63965,0,0,0,0,0,0,0,0,0,0,0,1,0,0,0,0,0,0,0,0,0,0,0,0,0,843
-14.45165,6.849671,-6.181376,-6.83E-06,-83.81863,16.63965,0,0,0,0,0,0,0,0,0,0,0,1,0,0,0,0,0,0,0,0,0,0,0,0,0,844
-14.45165,6.849671,-6.181376,-6.83E-06,-83.81863,16.63965,0,0,0,0,0,0,0,0,0,0,0,1,0,0,0,0,0,0,0,0,0,0,0,0,0,845
-14.45165,6.849671,-6.181376,-6.83E-06,-83.81863,16.63965,0,0,0,0,0,0,0,0,0,0,0,1,0,0,0,0,0,0,0,0,0,0,0,0,0,846
-14.45165,6.849671,-6.181376,-6.83E-06,-83.81863,16.63965,0,0,0,0,0,0,0,0,0,0,0,1,0,0,0,0,0,0,0,0,0,0,0,0,0,847
-14.45165,6.849671,-6.181376,-6.83E-06,-83.81863,16.63965,0,0,0,0,0,0,0,0,0,0,0,1,0,0,0,0,0,0,0,0,0,0,0,0,0,848
-14.45165,6.849671,-6.181376,-6.83E-06,-83.81863,16.63965,0,0,0,0,0,0,0,0,0,0,0,1,0,0,0,0,0,0,0,0,0,0,0,0,0,849
-14.45165,6.849671,-6.181376,-6.83E-06,-83.81863,16.63965,0,0,0,0,0,0,0,0,0,0,0,1,0,0,0,0,0,0,0,0,0,0,0,0,0,850
-14.45165,6.849671,-6.181376,-6.83E-06,-83.81863,16.63965,0,0,0,0,0,0,0,0,0,0,0,1,0,0,0,0,0,0,0,0,0,0,0,0,0,851
-14.45165,6.849671,-6.181376,-6.83E-06,-83.81863,16.63965,0,0,0,0,0,0,0,0,0,0,0,1,0,0,0,0,0,0,0,0,0,0,0,0,0,852
-14.45165,6.849671,-6.181376,-6.83E-06,-83.81863,16.63965,0,0,0,0,0,0,0,0,0,0,0,1,0,0,0,0,0,0,0,0,0,0,0,0,0,853
-14.45165,6.849671,-6.181376,-6.83E-06,-83.81863,16.63965,0,0,0,0,0,0,0,0,0,0,0,1,0,0,0,0,0,0,0,0,0,0,0,0,0,854
-14.45165,6.849671,-6.181376,-6.83E-06,-83.81863,16.63965,0,0,0,0,0,0,0,0,0,0,0,1,0,0,0,0,0,0,0,0,0,0,0,0,0,855
-14.45165,6.849671,-6.181376,-6.83E-06,-83.81863,16.63965,0,0,0,0,0,0,0,0,0,0,0,1,0,0,0,0,0,0,0,0,0,0,0,0,0,856
-14.45165,6.849671,-6.181376,-6.83E-06,-83.81863,16.63965,0,0,0,0,0,0,0,0,0,0,0,1,0,0,0,0,0,0,0,0,0,0,0,0,0,857
-14.45165,6.849671,-6.181376,-6.83E-06,-83.81863,16.63965,0,0,0,0,0,0,0,0,0,0,0,1,0,0,0,0,0,0,0,0,0,0,0,0,0,858
-14.45165,6.849671,-6.181376,-6.83E-06,-83.81863,16.63965,0,0,0,0,0,0,0,0,0,0,0,1,0,0,0,0,0,0,0,0,0,0,0,0,0,859
-14.45165,6.849671,-6.181376,-6.83E-06,-83.81863,16.63965,0,0,0,0,0,0,0,0,0,0,0,1,0,0,0,0,0,0,0,0,0,0,0,0,0,860
-14.45165,6.849671,-6.181376,-6.83E-06,-83.81863,16.63965,0,0,0,0,0,0,0,0,0,0,0,1,0,0,0,0,0,0,0,0,0,0,0,0,0,861
-14.45165,6.849671,-6.181376,-6.83E-06,-83.81863,16.63965,0,0,0,0,0,0,0,0,0,0,0,1,0,0,0,0,0,0,0,0,0,0,0,0,0,862
-14.45165,6.849671,-6.181376,-6.83E-06,-83.81863,16.63965,0,0,0,0,0,0,0,0,0,0,0,1,0,0,0,0,0,0,0,0,0,0,0,0,0,863
-14.45165,6.849671,-6.181376,-6.83E-06,-83.81863,16.63965,0,0,0,0,0,0,0,0,0,0,0,1,0,0,0,0,0,0,0,0,0,0,0,0,0,864
-14.45165,6.849671,-6.181376,-6.83E-06,-83.81863,16.63965,0,0,0,0,0,0,0,0,0,0,0,1,0,0,0,0,0,0,0,0,0,0,0,0,0,865
-14.45165,6.849671,-6.181376,-6.83E-06,-83.81863,16.63965,0,0,0,0,0,0,0,0,0,0,0,1,0,0,0,0,0,0,0,0,0,0,0,0,0,866
-14.45165,6.849671,-6.181376,-6.83E-06,-83.81863,16.63965,0,0,0,0,0,0,0,0,0,0,0,1,0,0,0,0,0,0,0,0,0,0,0,0,0,867
-14.45165,6.849671,-6.181376,-6.83E-06,-83.81863,16.63965,0,0,0,0,0,0,0,0,0,0,0,1,0,0,0,0,0,0,0,0,0,0,0,0,0,868
-14.45165,6.849671,-6.181376,-6.83E-06,-83.81863,16.63965,0,0,0,0,0,0,0,0,0,0,0,1,0,0,0,0,0,0,0,0,0,0,0,0,0,869
-14.45165,6.849671,-6.181376,-6.83E-06,-83.81863,16.63965,0,0,0,0,0,0,0,0,0,0,0,1,0,0,0,0,0,0,0,0,0,0,0,0,0,870
-14.45165,6.849671,-6.181376,-6.83E-06,-83.81863,16.63965,0,0,0,0,0,0,0,0,0,0,0,1,0,0,0,0,0,0,0,0,0,0,0,0,0,871
-14.45165,6.849671,-6.181376,-6.83E-06,-83.81863,16.63965,0,0,0,0,0,0,0,0,0,0,0,1,0,0,0,0,0,0,0,0,0,0,0,0,0,872
-14.45165,6.849671,-6.181376,-6.83E-06,-83.81863,16.63965,0,0,0,0,0,0,0,0,0,0,0,1,0,0,0,0,0,0,0,0,0,0,0,0,0,873
-14.44512,6.887525,-6.177547,-6.83E-06,-83.82246,16.63313,0,0,0,0,0,0,0,0,0,0,0,1,0,0,0,0,0,0,0,0,0,0,0,0,0,874
-14.39363,7.187746,-6.146427,-6.83E-06,-83.85358,16.58162,0,0,0,0,0,0,0,0,0,0,0,1,0,0,0,0,0,0,0,0,0,0,0,0,0,875
-14.26706,7.936311,-6.063086,-6.83E-06,-83.93692,16.45506,0,0,0,0,0,0,0,0,0,0,0,1,0,0,0,0,0,0,0,0,0,0,0,0,0,876
-14.02236,9.428885,-5.872434,-6.83E-06,-84.12758,16.21036,0,0,0,0,0,0,0,0,0,0,0,1,0,0,0,0,0,0,0,0,0,0,0,0,0,877
-13.81579,10.73851,-5.67837,-6.83E-06,-84.32163,16.00379,0,0,0,0,0,0,0,0,0,0,0,1,0,0,0,0,0,0,0,0,0,0,0,0,0,878
-13.72288,11.34346,-5.580301,-6.83E-06,-84.41971,15.91087,0,0,0,0,0,0,0,0,0,0,0,1,0,0,0,0,0,0,0,0,0,0,0,0,0,879
-13.71092,11.42204,-5.567173,-6.83E-06,-84.43282,15.89892,0,0,0,0,0,0,0,0,0,0,0,1,0,0,0,0,0,0,0,0,0,0,0,0,0,880
-13.71023,11.42659,-5.566408,-6.83E-06,-84.43359,15.89823,0,0,0,0,0,0,0,0,0,0,0,1,0,0,0,0,0,0,0,0,0,0,0,0,0,881
-13.71023,11.42659,-5.566408,-6.83E-06,-84.43359,15.89823,0,0,0,0,0,0,0,0,0,0,0,1,0,0,0,0,0,0,0,0,0,0,0,0,0,882
-13.71023,11.42659,-5.566408,-6.83E-06,-84.43359,15.89823,0,0,0,0,0,0,0,0,0,0,0,1,0,0,0,0,0,0,0,0,0,0,0,0,0,883
-13.71023,11.42659,-5.566408,-6.83E-06,-84.43359,15.89823,0,0,0,0,0,0,0,0,0,0,0,1,0,0,0,0,0,0,0,0,0,0,0,0,0,884
-13.71023,11.42659,-5.566408,-6.83E-06,-84.43359,15.89823,0,0,0,0,0,0,0,0,0,0,0,1,0,0,0,0,0,0,0,0,0,0,0,0,0,885
-13.71023,11.42659,-5.566408,-6.83E-06,-84.43359,15.89823,0,0,0,0,0,0,0,0,0,0,0,1,0,0,0,0,0,0,0,0,0,0,0,0,0,886
-13.71023,11.42659,-5.566408,-6.83E-06,-84.43359,15.89823,0,0,0,0,0,0,0,0,0,0,0,1,0,0,0,0,0,0,0,0,0,0,0,0,0,887
-13.71023,11.42659,-5.566408,-6.83E-06,-84.43359,15.89823,0,0,0,0,0,0,0,0,0,0,0,1,0,0,0,0,0,0,0,0,0,0,0,0,0,888
-13.71023,11.42659,-5.566408,-6.83E-06,-84.43359,15.89823,0,0,0,0,0,0,0,0,0,0,0,1,0,0,0,0,0,0,0,0,0,0,0,0,0,889
-13.71023,11.42659,-5.566408,-6.83E-06,-84.43359,15.89823,0,0,0,0,0,0,0,0,0,0,0,1,0,0,0,0,0,0,0,0,0,0,0,0,0,890
